desc: Breath Generator
// Designed by Rozaya, developed with Claude (Anthropic)
//
// This work is dedicated to the public domain under CC0 1.0 Universal.
// https://creativecommons.org/publicdomain/zero/1.0/

slider1:4.0<0.5,20.0,0.1>Inhale Duration (sec)
slider2:0.3<0.0,5.0,0.1>Top Pause (sec)
slider3:4.0<0.5,20.0,0.1>Exhale Duration (sec)
slider4:0.3<0.0,5.0,0.1>Bottom Pause (sec)
slider5:300<50,2000,1>Inhale Frequency Hz
slider6:180<50,2000,1>Exhale Frequency Hz
slider7:0.3<0.0,1.0,0.01>Inhale Fade In
slider8:0.2<0.0,1.0,0.01>Inhale Fade Out
slider9:0.2<0.0,1.0,0.01>Exhale Fade In
slider10:0.3<0.0,1.0,0.01>Exhale Fade Out
slider11:2<1,4,1{Linear,Cosine,Exponential,Natural}>Fade Mode
slider12:0.5<0.0,1.0,0.01>Stereo Width
slider13:0<0,1,1{Normal,Flipped}>Stereo Flip

// Sit silent for N seconds after playback starts, then begin normally.
// Re-arms on every transport stop/start. 0 disables the delay.
slider14:0<0,1000,0.001>Start Delay (seconds)

// Per-breath Play/Rest gate. Runs N full breath cycles, then sits
// silent for M breath cycles' worth of time, then resumes — repeats
// forever. A "breath cycle" is one full inhale + top pause + exhale
// + bottom pause. During rest the state machine pauses on the
// bottom-pause state (already silent in normal operation), so the
// gate's silence is just an extended bottom pause — no extra fade
// logic needed. The breath in progress when the threshold hits
// finishes its natural envelope before the rest begins; the gate
// only stops the NEXT breath from starting. 0 in either slider
// disables the gate. Resets on every transport stop/start.
slider15:0<0,1000,1>Play for (breaths)
slider16:0<0,1000,1>Rest for (breaths)

@init
srate_inv = 1.0 / srate;
two_pi = 2.0 * $pi;

// State machine
// 0 = inhale, 1 = top pause, 2 = exhale, 3 = bottom pause
breath_state = 0;
state_phase = 0.0; // 0..1 through current state

// Durations in samples
inhale_len  = floor(srate * 4.0);
top_len     = floor(srate * 0.3);
exhale_len  = floor(srate * 4.0);
bot_len     = floor(srate * 0.3);
state_len   = inhale_len;
state_pos   = 0;

// Filter state - two channels, each with inhale and exhale filter
// L channel
in_lp_l = 0; in_bp_l = 0;
ex_lp_l = 0; ex_bp_l = 0;
// R channel - slightly different to decorrelate
in_lp_r = 0; in_bp_r = 0;
ex_lp_r = 0; ex_bp_r = 0;



// Filter coefficients - initialized to defaults
in_f  = min(2.0 * sin($pi * 300.0 * srate_inv), 0.98);
in_f_r = min(2.0 * sin($pi * 285.0 * srate_inv), 0.98);
ex_f  = min(2.0 * sin($pi * 180.0 * srate_inv), 0.98);
ex_f_r = min(2.0 * sin($pi * 168.0 * srate_inv), 0.98);
lp_q  = 0.6;

fade_in_in   = 0.3;
fade_in_out  = 0.2;
fade_ex_in   = 0.2;
fade_ex_out  = 0.3;
fade_mode    = 2;
stereo_width = 0.5;

noise_seed  = 12345;
noise_seed2 = 67890;

function apply_fade(pos, fade_in, fade_out, mode) local(raw, t) (
  // pos = 0..1 through the sound
  // fade_in and fade_out are fractions of total duration
  raw = 1.0;

  // Fade in region
  pos < fade_in ? (
    t = pos / fade_in; // 0..1 within fade
    mode == 1 ? raw = t;                                    // Linear
    mode == 2 ? raw = 0.5 - 0.5 * cos(t * $pi);           // Cosine
    mode == 3 ? raw = t * t;                               // Exponential in
    mode == 4 ? raw = sin(t * $pi * 0.5);                  // Natural (sine curve)
  ) :

  // Fade out region
  pos > (1.0 - fade_out) ? (
    t = (pos - (1.0 - fade_out)) / fade_out; // 0..1 within fade
    mode == 1 ? raw = 1.0 - t;
    mode == 2 ? raw = 0.5 + 0.5 * cos(t * $pi);
    mode == 3 ? raw = (1.0 - t) * (1.0 - t);
    mode == 4 ? raw = cos(t * $pi * 0.5);
  );

  raw;
);

// Start Delay state.
last_play_state     = 0;
start_delay_elapsed = 0;
start_delay_sec     = 0;

// Play/Rest gate state. pr_breath counts breaths completed in the
// current play period (init to 0 because the first breath is still
// in progress at t=0). pr_rest_elapsed counts samples spent in rest
// — when it reaches rest_for_breaths * total_breath_samples, exit
// rest and start a fresh breath cycle from inhale.
pr_resting          = 0;
pr_breath           = 0;
pr_rest_elapsed     = 0;
play_for_breaths    = 0;
rest_for_breaths    = 0;
pr_enabled          = 0;
total_breath_samples = 0;

@slider
inhale_len = max(floor(srate * slider1), 1);
top_len    = max(floor(srate * slider2), 1);
exhale_len = max(floor(srate * slider3), 1);
bot_len    = max(floor(srate * slider4), 1);

// Clamp state_pos if durations shrank
breath_state == 0 ? state_len = inhale_len;
breath_state == 1 ? state_len = top_len;
breath_state == 2 ? state_len = exhale_len;
breath_state == 3 ? state_len = bot_len;
state_pos = min(state_pos, state_len - 1);

// Width spreads L and R filter frequencies apart from center
in_f   = min(2.0 * sin($pi * (slider5 * (1.0 + slider12 * 0.15)) * srate_inv), 0.98);
in_f_r = min(2.0 * sin($pi * (slider5 * (1.0 - slider12 * 0.15)) * srate_inv), 0.98);
ex_f   = min(2.0 * sin($pi * (slider6 * (1.0 + slider12 * 0.12)) * srate_inv), 0.98);
ex_f_r = min(2.0 * sin($pi * (slider6 * (1.0 - slider12 * 0.12)) * srate_inv), 0.98);

fade_in_in  = slider7;
fade_in_out = slider8;
fade_ex_in  = slider9;
fade_ex_out = slider10;
fade_mode   = slider11;
stereo_width = slider12;

start_delay_sec = slider14;

// Play/Rest gate: integer breath counts. Both must be > 0 for the
// gate to engage. total_breath_samples is the sample-count of one
// full breath cycle, used to time the rest period (which is a
// continuous sample counter, not a state-machine count).
total_breath_samples = inhale_len + top_len + exhale_len + bot_len;
play_for_breaths = slider15;
rest_for_breaths = slider16;
new_pr_enabled = (play_for_breaths > 0 && rest_for_breaths > 0);
// If the user disables the gate mid-rest, snap back to the start of
// a fresh inhale so the plugin doesn't stay stuck silent in state 3.
!new_pr_enabled && pr_resting ? (
  pr_resting = 0;
  breath_state = 0;
  state_len = inhale_len;
  state_pos = 0;
);
pr_enabled = new_pr_enabled;

@sample

// Re-arm Start Delay on every transport stop/start, then gate
// the whole @sample work — state machine stays frozen during the
// silent window so the breath cycle begins cleanly when the delay
// elapses.
play_state > 0 && last_play_state == 0 ? (
  start_delay_elapsed = 0;
);
last_play_state = play_state;

start_delay_elapsed < start_delay_sec ? (
  start_delay_elapsed += 1 / srate;
  spl0 = 0;
  spl1 = 0;
) : (

// Advance state machine. The 3→0 transition (end of bottom pause,
// start of a new breath cycle) is special-cased so the Play/Rest
// gate can decide whether to actually start a new breath or stay
// silent in state 3 for the rest of the rest period.
state_pos += 1;
state_pos >= state_len ? (
  state_pos = 0;
  breath_state == 3 ? (
    // End of bottom pause — would normally start a new breath.
    // First: did the breath we JUST completed take us to the play
    // threshold? If so, flip to rest. (Only counts when actually
    // playing — during rest, repeated state-3 ends don't increment
    // the breath counter.)
    pr_enabled && !pr_resting ? (
      pr_breath += 1;
      pr_breath >= play_for_breaths ? (
        pr_resting = 1;
        pr_breath = 0;
        pr_rest_elapsed = 0;
      );
    );
    // Start a new breath cycle ONLY if not resting. If pr_resting is
    // true (either we just flipped to rest, or we've been resting),
    // leave breath_state at 3 and state_pos at 0 so the next pass
    // through the state-end check just re-enters the bottom pause
    // (already silent). The rest timer below is what eventually
    // exits rest and forces a fresh inhale.
    !pr_resting ? (
      breath_state = 0;
      state_len = inhale_len;
    );
  ) : (
    // Normal advance within a breath (0→1, 1→2, 2→3).
    breath_state = (breath_state + 1) % 4;
    breath_state == 1 ? state_len = top_len;
    breath_state == 2 ? state_len = exhale_len;
    breath_state == 3 ? state_len = bot_len;
  );
);

// Rest timer. While resting, count samples elapsed since rest
// began. When that reaches rest_for_breaths * total_breath_samples,
// exit rest and force a fresh inhale to start. total_breath_samples
// is recomputed in @slider whenever any phase-duration slider
// changes, so changing those mid-rest stretches/compresses the
// remaining rest accordingly.
pr_resting ? (
  pr_rest_elapsed += 1;
  pr_rest_elapsed >= rest_for_breaths * total_breath_samples ? (
    pr_resting = 0;
    pr_breath = 0;
    breath_state = 0;
    state_len = inhale_len;
    state_pos = 0;
  );
);

// Position within current state as 0..1
state_phase = state_pos / max(state_len - 1, 1);

// Independent noise per channel - naturally decorrelated stereo
noise_seed = (noise_seed * 1664525 + 1013904223) & 0xFFFFFFFF;
nl = (noise_seed - 0x80000000) * (1.0 / 2147483648.0);
noise_seed2 = (noise_seed2 * 22695477 + 1) & 0xFFFFFFFF;
nr = (noise_seed2 - 0x80000000) * (1.0 / 2147483648.0);

// Silence during pauses
(breath_state == 1 || breath_state == 3) ? (
  spl0 = 0;
  spl1 = 0;
) : (

  breath_state == 0 ? (
    // Inhale
    env = apply_fade(state_phase, fade_in_in, fade_in_out, fade_mode);

    // L
    in_lp_l += in_f * in_bp_l;
    in_hp_l = nl - in_lp_l - lp_q * in_bp_l;
    in_bp_l += in_f * in_hp_l;

    // R - different f coefficient for width
    in_lp_r += in_f_r * in_bp_r;
    in_hp_r = nr - in_lp_r - lp_q * in_bp_r;
    in_bp_r += in_f_r * in_hp_r;

    slider13 == 0 ? (
      spl0 = in_lp_l * env * 1.5;
      spl1 = in_lp_r * env * 1.5;
    ) : (
      spl0 = in_lp_r * env * 1.5;
      spl1 = in_lp_l * env * 1.5;
    );
  ) : (
    // Exhale
    env = apply_fade(state_phase, fade_ex_in, fade_ex_out, fade_mode);

    ex_lp_l += ex_f * ex_bp_l;
    ex_hp_l = nl - ex_lp_l - lp_q * ex_bp_l;
    ex_bp_l += ex_f * ex_hp_l;

    ex_lp_r += ex_f_r * ex_bp_r;
    ex_hp_r = nr - ex_lp_r - lp_q * ex_bp_r;
    ex_bp_r += ex_f_r * ex_hp_r;

    slider13 == 0 ? (
      spl0 = ex_lp_l * env * 1.5;
      spl1 = ex_lp_r * env * 1.5;
    ) : (
      spl0 = ex_lp_r * env * 1.5;
      spl1 = ex_lp_l * env * 1.5;
    );
  );
);

);  // close start-delay else branch
