desc: Resonant Sweeping Filter with Shaped LFO and Pan Modes
// Designed by Rozaya, developed with Claude (Anthropic)
//
// This work is dedicated to the public domain under CC0 1.0 Universal.
// https://creativecommons.org/publicdomain/zero/1.0/

slider1:500<20,20000,1>Frequency Low Hz
slider2:5000<20,20000,1>Frequency High Hz
slider3:2<0.001,1000,0.001>Rate Value
slider4:0<0,2,1{Hz,Seconds,BPM}>Rate Mode
slider5:0<-180,180,0.1>LFO Start Phase (degrees)
slider6:50<0,100,0.1>On Duration % of Cycle
slider7:100<0,100,0.1>Depth %
slider8:0<0,100,0.1>Attack %
slider9:0<0,100,0.1>Release %
slider10:1<0,3,1{Linear,Cosine,Logarithmic,Exponential}>Attack Shape
slider11:1<0,3,1{Linear,Cosine,Logarithmic,Exponential}>Release Shape
slider12:0.7<0,1,0.01>Resonance
slider13:0<-180,180,0.1>R Channel Phase Offset degrees
slider14:0<0,1,1{Independent L+R,Offset from L}>Phase Mode
slider15:1<0,1,0.01>Wet/Dry Mix
// ===== PAN BLOCK SLIDERS START =====
slider16:0<0,1,1{Off,On}>Pan Enabled
slider17:0<0,12,1{Mono,Alternating,Alternating (Flipped),Distributed,Distributed (Flipped),Distributed (Ping-pong),Converging,Converging (Ping-pong),Diverging,Diverging (Ping-pong),Pan Sweep,Pan Sweep (Flipped),Linked Sweep}>Pan Mode
slider18:1<0,1,0.01>Pan Spread (0=mono, 1=full)
slider19:5<0,100,0.1>Pan Glide ms (0=instant)
slider20:8<2,32,1>Cycle Steps (per-cycle modes)
slider21:2<0.001,1000,0.001>Pan Sweep Rate
slider22:0<0,2,1{Hz,Seconds,BPM}>Pan Sweep Rate Unit
slider23:1<0.125,8,0.125>Filter Speed Multiplier (Linked Sweep)
// ===== PAN BLOCK SLIDERS END =====

// Pass-through for N units after playback starts, then apply the
// filter sweep + pan effect normally. Units match Rate Mode (BPM
// beats / Seconds / Hz cycles), interpreted against Rate Value. As an
// EFFECT plugin the dry signal passes through during the delay. Re-
// arms on every transport stop/start. 0 disables the delay.
slider24:0<0,1000,0.001>Start Delay

// Per-cycle Play/Rest gate. Effect is applied normally for N cycles
// of the Rate Value, then bypassed (dry signal passes through
// unchanged) for M cycles, then resumes — repeats forever. Cycle
// unit matches Start Delay. As an EFFECT plugin, "rest" means dry
// pass-through (NOT silence) — silencing the input would mute the
// upstream track. The transition between effect-on and dry uses a
// ~3 ms fade. 0 in either slider disables the gate. Resets on
// every transport stop/start.
slider25:0<0,1000,1>Play for (cycles)
slider26:0<0,1000,1>Rest for (cycles)

// What the LFOs do during the rest period.
//   Walk through (default) — filter sweep LFO and pan LFOs keep
//     cycling during rest. When the effect resumes, the cutoff has
//     swept to a different position.
//   Freeze in place — LFO phases pause, frozen at their values at
//     rest entry. When the effect resumes, the cutoff picks up
//     from the same position. The rhythmic sweep pauses and
//     resumes in lockstep with the gate.
slider27:0<0,1,1{Walk through,Freeze in place}>LFO at rest

// What the output does during the rest period.
//   Pass-through (default) — dry signal passes through unchanged
//     (matches Start Delay's behavior). Effect plugins normally
//     don't silence their input.
//   Silence — wet+dry mix smooths to 0; the audio drops out during
//     rest instead of passing dry. Useful when you want the gate
//     to act like a hard mute rather than a filter bypass.
//     Combines cleanly with either Rest LFO setting.
slider28:0<0,1,1{Pass-through,Silence}>Output at rest

// Speed ramp: signed-delta on Sweep Rate (slider3), in the rate's
// currently-displayed unit (BPM if Rate Mode = BPM, seconds if
// Seconds, Hz if Hz). Effective rate = slider3 + ramp_t * slider29.
// In BPM/Hz modes negative slider29 = slower; in Seconds mode
// (period) positive slider29 = slower (longer period).
//
// A ~100 ms smoother on freq removes clicks from manual Rate
// adjustment too. Linked Sweep pan mode (12) scales with this since
// it derives its rate from the sweep frequency; the two pan-sweep
// modes (10, 11) have their own independent rate and are untouched.
//
// Engage is a freeze/resume gate (NOT a restart edge); only
// transport play resets ramp_t.
//
// Migration from v2.7: slider 29 changed from multiplier (0.1-4.0)
// to signed delta in rate-units. Old projects' multiplier value
// interprets as a tiny delta — Speed Ramp effectively "off" until
// reconfigured.
slider29:0<-1000,1000,0.001>Speed ramp by (in rate's current unit)
slider30:0<0,60,0.1>Speed ramp duration (minutes)
slider31:0<0,1,1{Off,On}>Speed ramp engage
slider32:0<0,60,0.1>Speed ramp start delay (minutes)

// Per-target drift: nested-selector pattern matching Womb v3 / the
// rest of the v2.9 sweep. Pick a target (slider33), then sliders 34-37
// hold THAT target's drift config. Switching the selector saves
// current values to the old target's memory slot and loads the new
// target's values into the sliders. All 6 targets drift in parallel;
// the selector just chooses which one you're currently editing.
//
// Targets:
//   Sweep Rate      — wanders the filter LFO rate (the old drift target).
//   Frequency Low   — wanders the low edge of the sweep band (Hz).
//   Frequency High  — wanders the high edge of the sweep band (Hz).
//   Pan Sweep Rate  — wanders the Pan Sweep Rate (pan modes 10/11 only).
//   Resonance       — wanders the filter resonance (0-1).
//   Wet/Dry         — wanders the wet/dry mix (0-1).
//
// Period unit is filter LFO cycles for ALL targets, scaled by Speed
// Ramp. For slow wall-clock-feel drift, set a long period.
//
// Up/Down amount is in the target's natural unit: the rate's current
// unit (BPM / Seconds / Hz) for Sweep Rate, Hz for the two Frequency
// targets, the Pan Sweep Rate's unit for Pan Sweep Rate, and a 0-1
// fraction for Resonance and Wet/Dry. The 0-5000 range covers the
// frequencies (±5 kHz wander) and rate/BPM; Resonance and Wet/Dry use
// the low end (e.g. 0.3), Hz-mode rates use small values.
//
// Migration from v2.8: the old flat drift block (musical_up/down/
// period, slow_up/down/period, drift_shape on sliders 33-39) was 7
// sliders covering Sweep Rate only. v2.9 is 5 sliders covering 6
// independent targets, reusing slider IDs 33-37; sliders 38 and 39
// are no longer declared. Old projects' slider values get reinterpreted
// (selector defaults to Sweep Rate; non-zero amounts on 34-35 produce
// drift on Sweep Rate). Reset drift sliders to defaults after upgrade
// and reconfigure.
slider33:0<0,5,1{Sweep Rate,Frequency Low,Frequency High,Pan Sweep Rate,Resonance,Wet/Dry}>Drift target
slider34:0<0,5000,0.01>Drift up amount (units match target)
slider35:0<0,5000,0.01>Drift down amount (units match target)
slider36:8<1,1000,1>Drift period (cycles)
slider37:0<0,2,1{Sine,Triangle,Random}>Drift shape

in_pin:left input
in_pin:right input
out_pin:left output
out_pin:right output

@init
ext_noinit = 1;   // preserve drift config bank across transport play (drift runtime + LFO/filter/gate state still reset on play, see transport edge handler in @sample)

phase_l = 0;
phase_r = 0;
n3 = n4 = rn3 = rn4 = 0;
cut_smooth_l = cut_smooth_r = 0.1;
last_start_phase = -999;

// ===== PAN BLOCK INIT START =====
pan_l           = 0;
pan_l_smooth    = 0;
pan_cycle_index = 0;
pan_cycle_dir   = 1;
last_phase_l    = 0;
pan_phase       = 0;
// ===== PAN BLOCK INIT END =====


function apply_curve(t, shape) (
  shape == 0 ? t :
  shape == 1 ? (0.5 - 0.5 * cos(t * $pi)) :
  shape == 2 ? (log(1 + 9*t) / log(10)) :
               ((10^t - 1) / 9)
);

function calc_lfo(ph, on_secs, att_secs, rel_secs, period, att_shape, rel_shape)
local(on_frac, aw, rw, hold_w, re_start, t, result, total) (
  on_secs = min(on_secs, period);
  on_frac = on_secs / period;

  aw = att_secs / period;
  rw = rel_secs / period;

  aw + rw > on_frac ? (
    total = aw + rw;
    aw = aw / total * on_frac;
    rw = rw / total * on_frac;
  );

  hold_w   = on_frac - aw - rw;
  re_start = aw + hold_w;

  ph < aw ? (
    aw > 0.0001 ? (
      t = ph / aw;
      result = apply_curve(t, att_shape);
    ) : (result = 1);
  ) :
  ph < re_start ? (
    result = 1;
  ) :
  ph < on_frac ? (
    rw > 0.0001 ? (
      t = 1 - (ph - re_start) / rw;
      result = apply_curve(t, rel_shape);
    ) : (result = 0);
  ) : (
    result = 0;
  );
  result
);

// ===== PAN BLOCK FUNCTIONS START =====
function percycle_pan(idx, n_steps) local(steps, step, pos) (
  n_steps = max(n_steps, 1);
  steps   = max(ceil((n_steps - 1) / 2.0), 1);

  pan_mode == 0 ? (
    pos = 0;
  ) : pan_mode == 1 ? (
    pos = (idx % 2 == 0) ? -1 : 1;
  ) : pan_mode == 2 ? (
    pos = (idx % 2 == 0) ? 1 : -1;
  ) : pan_mode == 3 ? (
    n_steps > 1 ? (pos = (idx % n_steps) / (n_steps - 1.0) * 2.0 - 1.0) : (pos = 0);
  ) : pan_mode == 4 ? (
    n_steps > 1 ? (pos = 1.0 - (idx % n_steps) / (n_steps - 1.0) * 2.0) : (pos = 0);
  ) : pan_mode == 5 ? (
    n_steps > 1 ? (pos = idx / (n_steps - 1.0) * 2.0 - 1.0) : (pos = 0);
  ) : pan_mode == 6 ? (
    idx = idx % n_steps;
    idx == 0 ? (
      pos = -1.0;
    ) : (
      step = ceil((idx + 1) / 2);
      pos = (idx % 2 == 1) ?  (1.0 - (step - 1.0) / steps)
                            : -(1.0 - (step - 1.0) / steps);
      pos = max(-1.0, min(1.0, pos));
    );
  ) : pan_mode == 7 ? (
    idx = idx % n_steps;
    idx == 0 ? (
      pos = -1.0;
    ) : (
      step = ceil((idx + 1) / 2);
      pos = (idx % 2 == 1) ?  (1.0 - (step - 1.0) / steps)
                            : -(1.0 - (step - 1.0) / steps);
      pos = max(-1.0, min(1.0, pos));
    );
  ) : pan_mode == 8 ? (
    idx = idx % n_steps;
    idx == 0 ? (
      pos = 0.0;
    ) : (
      step = floor((idx + 1) / 2);
      pos = (idx % 2 == 1) ? -(step / steps)
                            :  (step / steps);
      pos = max(-1.0, min(1.0, pos));
    );
  ) : pan_mode == 9 ? (
    idx = idx % n_steps;
    idx == 0 ? (
      pos = 0.0;
    ) : (
      step = floor((idx + 1) / 2);
      pos = (idx % 2 == 1) ? -(step / steps)
                            :  (step / steps);
      pos = max(-1.0, min(1.0, pos));
    );
  ) : (
    pos = 0;
  );

  pos * pan_spread
);
// ===== PAN BLOCK FUNCTIONS END =====

// Start Delay state.
last_play_state     = 0;
start_delay_elapsed = 0;
start_delay_sec     = 0;

// Play/Rest gate state. pr_cycle_progress is a continuous fractional
// counter (cycles elapsed in the current play or rest period).
// effect_mix smoothly transitions between 1 (effect fully on) and
// 0 (full dry pass-through) at rest boundaries — the wet mix and
// pan blend with their dry equivalents via this mix, so the gate
// is a soft fade rather than an abrupt switch.
pr_resting        = 0;
pr_cycle_progress = 0;
play_for_cycles   = 0;
rest_for_cycles   = 0;
pr_enabled        = 0;
rest_lfo_mode     = 0;
rest_output_mode  = 0;
effect_mix        = 1;

// Speed ramp + rate smoother state. Seeded from current slider values
// in @init so the first sample after transport-start uses the saved
// rate, not a default — same pattern as Tremolo.
rate_smoother_coeff      = 1.0 - exp(-1.0 / (srate * 0.1));
slider4 == 0 ? (freq_smoothed = slider3) :
slider4 == 1 ? (freq_smoothed = 1 / max(slider3, 0.001)) :
               (freq_smoothed = slider3 / 60);
// Speed Ramp state. Engage is a freeze/resume gate, not an edge;
// only transport play resets ramp_t.
speed_scale_current      = 1.0;
speed_ramp_t             = 0.0;
speed_ramp_delay_elapsed = 0;

// --- v2.9 Drift target memory banks ---
//
// 6 targets × 8 fields. Each array is 16-slot-spaced so targets can
// grow to 16 later. This plugin uses no other memory arrays (all
// scalar state), so the bank lives at 1024 with plenty of headroom.
//
// Targets:
//   0 = Sweep Rate      (units: rate's current unit)
//   1 = Frequency Low   (units: Hz)
//   2 = Frequency High  (units: Hz)
//   3 = Pan Sweep Rate  (units: Pan Sweep Rate's unit; modes 10/11 only)
//   4 = Resonance       (units: 0-1 fraction)
//   5 = Wet/Dry         (units: 0-1 fraction)
N_TARGETS = 6;
target_drift_up     = 1024;
target_drift_down   = 1040;
target_drift_per    = 1056;
target_drift_shape  = 1072;
target_drift_phase  = 1088;
target_drift_prev   = 1104;
target_drift_curr   = 1120;
target_drift_offset = 1136;

i = 0;
loop(N_TARGETS,
  target_drift_up[i]     = 0;
  target_drift_down[i]   = 0;
  target_drift_per[i]    = 8;
  target_drift_shape[i]  = 0;
  target_drift_phase[i]  = 0;
  target_drift_prev[i]   = 0;
  target_drift_curr[i]   = 0;
  target_drift_offset[i] = 0;
  i += 1;
);

// Last-selected drift target tracker for save/restore on selector change.
last_target_select = 0;


@slider

freq_lo      = min(slider1, slider2);
freq_hi      = max(slider1, slider2);
rate_val     = slider3;
rate_mode    = slider4;
dur_pct      = slider6;
depth_pct    = slider7 * 0.01;
att_pct      = slider8;
rel_pct      = slider9;
att_shape    = slider10;
rel_shape    = slider11;
resonance    = slider12;
phase_offset = slider13 / 360;
wet          = slider15;
dry          = 1 - wet;

slider5 != last_start_phase ? (
  phase_l = slider5 / 360.0;
  phase_l < 0 ? phase_l += 1;
  phase_r = phase_l;
  last_start_phase = slider5;
);

// ===== PAN BLOCK SLIDER READ START =====
pan_enabled     = slider16;
pan_mode        = slider17;
pan_spread      = slider18;
pan_glide_ms    = slider19;
pan_cycle_steps = slider20;
pan_sweep_val   = slider21;
pan_sweep_mode  = slider22;
pan_sweep_ratio = slider23;

slider_show(slider17, pan_enabled);
slider_show(slider18, pan_enabled);
slider_show(slider19, pan_enabled);
slider_show(slider20, pan_enabled && pan_mode >= 1 && pan_mode <= 9);
slider_show(slider21, pan_enabled && (pan_mode == 10 || pan_mode == 11));
slider_show(slider22, pan_enabled && (pan_mode == 10 || pan_mode == 11));
slider_show(slider23, pan_enabled && pan_mode == 12);
// ===== PAN BLOCK SLIDER READ END =====

// Start Delay: convert to seconds based on Rate Mode. BPM beats and
// Hz cycles are interpreted against Rate Value; Seconds is literal.
start_delay_units = slider24;
slider4 == 0 ? start_delay_sec = start_delay_units * 60 / max(slider3, 0.001) :
slider4 == 1 ? start_delay_sec = start_delay_units :
               start_delay_sec = start_delay_units / max(slider3, 0.001);

// Play/Rest gate: integer cycle counts. Both must be > 0 for the
// gate to engage; 0 in either slider disables.
play_for_cycles = slider25;
rest_for_cycles = slider26;
new_pr_enabled  = (play_for_cycles > 0 && rest_for_cycles > 0);
!new_pr_enabled && pr_resting ? (
  pr_resting = 0;
  pr_cycle_progress = 0;
);
pr_enabled       = new_pr_enabled;
rest_lfo_mode    = slider27;
rest_output_mode = slider28;

// Speed ramp engage-edge.
// No engage-edge detection. Engage is a freeze/resume gate handled
// in @sample. Only transport play resets ramp_t.

// Drift target selector save/restore (nested-selector pattern).
// Switching slider33 saves sliders 34-37 into the OLD target's slot,
// then loads the NEW target's stored config into sliders 34-37.
// Otherwise captures live edits to the current target's slot. All 6
// targets drift in parallel from @sample regardless of selection.
sel_target = slider33;
sel_up     = slider34;
sel_down   = slider35;
sel_per    = slider36;
sel_shape  = slider37;

last_target_select != sel_target ? (
  target_drift_up[last_target_select]    = sel_up;
  target_drift_down[last_target_select]  = sel_down;
  target_drift_per[last_target_select]   = sel_per;
  target_drift_shape[last_target_select] = sel_shape;

  slider34 = target_drift_up[sel_target];
  slider35 = target_drift_down[sel_target];
  slider36 = target_drift_per[sel_target];
  slider37 = target_drift_shape[sel_target];
  slider_automate(slider34);
  slider_automate(slider35);
  slider_automate(slider36);
  slider_automate(slider37);

  last_target_select = sel_target;
) : (
  target_drift_up[sel_target]    = sel_up;
  target_drift_down[sel_target]  = sel_down;
  target_drift_per[sel_target]   = sel_per;
  target_drift_shape[sel_target] = sel_shape;
);


@sample

// Transport play edge: fresh start. v2.9 uses ext_noinit = 1 so the
// drift CONFIG bank survives across transport — but everything else
// that @init used to reset (since @init no longer re-runs on play)
// needs explicit reset here so renders are deterministic. Matches
// breath_gen v2.9 / the suite rule.
play_state > 0 && last_play_state == 0 ? (
  // Start Delay + Speed Ramp progress.
  start_delay_elapsed      = 0;
  speed_ramp_t             = 0.0;
  speed_ramp_delay_elapsed = 0;

  // Drift runtime state (NOT the config bank).
  i = 0;
  loop(N_TARGETS,
    target_drift_phase[i]  = 0;
    target_drift_prev[i]   = 0;
    target_drift_curr[i]   = 0;
    target_drift_offset[i] = 0;
    i += 1;
  );

  // Filter LFO phases — honor the configured LFO Start Phase so the
  // sweep starts from the same point every play (good for renders).
  phase_l = slider5 / 360.0;
  phase_l < 0 ? phase_l += 1;
  phase_r = phase_l;
  last_start_phase = slider5;

  // Filter state + cutoff smoothers.
  n3 = n4 = rn3 = rn4 = 0;
  cut_smooth_l = cut_smooth_r = 0.1;

  // Pan state.
  pan_l = 0; pan_l_smooth = 0; pan_cycle_index = 0; pan_cycle_dir = 1;
  last_phase_l = 0; pan_phase = 0;

  // Play/Rest gate + effect mix.
  pr_resting        = 0;
  pr_cycle_progress = 0;
  effect_mix        = 1;

  // Rate smoother re-seeded from the current slider so the first
  // sample uses the saved rate, not a smoothed-up-from-0 value.
  slider4 == 0 ? (freq_smoothed = slider3) :
  slider4 == 1 ? (freq_smoothed = 1 / max(slider3, 0.001)) :
                 (freq_smoothed = slider3 / 60);
);
last_play_state = play_state;

start_delay_elapsed < start_delay_sec ? (
  start_delay_elapsed += 1 / srate;
  // No-op — spl0 and spl1 pass through unchanged.
) : (

freq_lo      = min(slider1, slider2);
freq_hi      = max(slider1, slider2);
rate_val     = slider3;
rate_mode    = slider4;
dur_pct      = slider6;
depth_pct    = slider7 * 0.01;
att_pct      = slider8;
rel_pct      = slider9;
att_shape    = slider10;
rel_shape    = slider11;
resonance    = slider12;
phase_offset = slider13 / 360;
wet          = slider15;
dry          = 1 - wet;

// ===== PAN BLOCK SAMPLE READ START =====
pan_enabled     = slider16;
pan_mode        = slider17;
pan_spread      = slider18;
pan_glide_ms    = slider19;
pan_cycle_steps = slider20;
pan_sweep_val   = slider21;
pan_sweep_mode  = slider22;
pan_sweep_ratio = slider23;
// ===== PAN BLOCK SAMPLE READ END =====

rate_mode == 0 ? (freq_raw = rate_val) :
rate_mode == 1 ? (freq_raw = 1 / max(rate_val, 0.001)) :
                 (freq_raw = rate_val / 60);

// Smooth the rate slider, advance the speed ramp, apply per-plugin
// drift, then derive the effective freq used downstream by the LFO
// phase advance and the cycle counter.
freq_smoothed += (freq_raw - freq_smoothed) * rate_smoother_coeff;

// Advance speed_ramp_t while engaged + duration > 0 + past start
// delay. Engage off freezes ramp_t; engaging on resumes from there.
slider31 && slider30 > 0 ? (
  speed_ramp_delay_samples = slider32 * 60 * srate;
  speed_ramp_delay_elapsed < speed_ramp_delay_samples ? (
    speed_ramp_delay_elapsed += 1;
  ) : (
    speed_ramp_t += 1.0 / (srate * slider30 * 60);
    speed_ramp_t = min(speed_ramp_t, 1.0);
  );
);

// Signed-delta Speed Ramp: effective rate value = rate_val + ramp_t *
// slider29 (both in rate's current unit). Convert to Hz the same way
// freq_raw is computed above, then express as a multiplicative factor
// on freq_smoothed so the existing combined_scale-based audio path
// keeps working. No "snapshot at engage" — live edits adjust trajectory.
effective_rate_val = rate_val + speed_ramp_t * slider29;
rate_mode == 0 ? (effective_rate_hz = effective_rate_val) :
rate_mode == 1 ? (effective_rate_hz = 1 / max(effective_rate_val, 0.001)) :
                 (effective_rate_hz = effective_rate_val / 60);
speed_scale_current = effective_rate_hz / max(freq_raw, 0.001);

// Per-target drift wave computation. 6 targets (0=Sweep Rate, 1=Freq
// Low, 2=Freq High, 3=Pan Sweep Rate, 4=Resonance, 5=Wet/Dry). Each
// gets a phase counter advancing per sample. Period unit is filter
// LFO cycles for ALL targets, referenced against freq_base (the
// Speed-Ramp-adjusted sweep rate BEFORE drift) so Sweep Rate drift
// doesn't self-modulate its own period.
freq_base = freq_smoothed * speed_scale_current;
drift_ref_freq = max(freq_base, 0.00001);
i = 0;
loop(N_TARGETS,
  up    = target_drift_up[i];
  down  = target_drift_down[i];
  per   = target_drift_per[i];
  shape = target_drift_shape[i];

  drift_offset_local = 0;
  (up > 0 || down > 0) && per > 0 ? (
    period_samples = max(per * srate / drift_ref_freq, 1);
    new_phase = target_drift_phase[i] + 1.0 / period_samples;
    new_phase >= 1.0 ? (
      new_phase -= 1.0;
      shape == 2 ? (
        target_drift_prev[i] = target_drift_curr[i];
        target_drift_curr[i] = rand(2) - 1;
      );
    );
    target_drift_phase[i] = new_phase;

    shape == 0 ? (
      shape_val = sin(2 * $pi * new_phase);
    ) : shape == 1 ? (
      shape_val = new_phase < 0.25 ? (4 * new_phase) :
                  new_phase < 0.75 ? (2 - 4 * new_phase) :
                                     (4 * new_phase - 4);
    ) : (
      shape_val = target_drift_prev[i] +
        (target_drift_curr[i] - target_drift_prev[i]) * new_phase;
    );
    drift_offset_local = shape_val > 0 ? shape_val * up : shape_val * down;
  );
  target_drift_offset[i] = drift_offset_local;
  i += 1;
);

// Sweep Rate drift (target 0): offset is in the rate's current unit;
// convert to a Hz delta on freq the same way the old drift did (in
// Seconds mode it's a period delta). Clamp so a heavy Down-by can't
// freeze the LFO.
rate_drift_user = target_drift_offset[0];
rate_drift_hz   = 0;
rate_drift_user != 0 ? (
  rate_mode == 0 ? (rate_drift_hz = rate_drift_user) :
  rate_mode == 1 ? (
    cur_period    = 1 / drift_ref_freq;
    new_period    = max(cur_period + rate_drift_user, 0.0001);
    rate_drift_hz = (1 / new_period) - freq_base;
  ) : (
    rate_drift_hz = rate_drift_user / 60;
  );
);
freq = max(freq_base + rate_drift_hz, 0.001);

// Frequency Low / High drift (targets 1, 2): wander the band edges in
// Hz, clamped to [20, 20000]. If drift pushes lo past hi, min/max keeps
// the band coherent (just inverts which edge leads).
eff_freq_lo = max(20, min(20000, freq_lo + target_drift_offset[1]));
eff_freq_hi = max(20, min(20000, freq_hi + target_drift_offset[2]));
band_lo = min(eff_freq_lo, eff_freq_hi);
band_hi = max(eff_freq_lo, eff_freq_hi);

// Resonance drift (target 4): clamp to [0, 1] (slider range).
eff_resonance = max(0, min(1, resonance + target_drift_offset[4]));

// Wet/Dry drift (target 5): clamp to [0, 1], re-derive dry.
eff_wet = max(0, min(1, wet + target_drift_offset[5]));
eff_dry = 1 - eff_wet;

// Pan Sweep Rate drift (target 3): fold into the pan sweep value used
// by pan modes 10/11 below (in the Pan Sweep Rate's own unit).
eff_pan_sweep_val = max(0.001, pan_sweep_val + target_drift_offset[3]);

period   = 1 / max(freq, 0.00001);
on_secs  = (dur_pct / 100.0) * period;
att_secs = (att_pct / 100.0) * period;
rel_secs = (rel_pct / 100.0) * period;

// Smoother coefficient — moved up from the cut_smooth section so
// effect_mix can reuse it for the rest-boundary fade.
smooth = exp(-1 / (srate * 0.003));

// Play/Rest gate state machine. pr_cycle_progress accumulates
// fractional cycles at the LFO rate; when it crosses the
// threshold for the current state, pr_resting flips and the
// counter resets.
pr_enabled ? (
  pr_cycle_progress += freq / srate;
  !pr_resting ? (
    pr_cycle_progress >= play_for_cycles ? (
      pr_resting = 1;
      pr_cycle_progress = 0;
    );
  ) : (
    pr_cycle_progress >= rest_for_cycles ? (
      pr_resting = 0;
      pr_cycle_progress = 0;
    );
  );
);

// in_frozen_rest gates LFO phase advancement (filter sweep LFO and
// pan_phase) so Freeze pauses the modulation during rest. Walk
// leaves it false. Independent of Rest output, so all four
// LFO×output combinations work.
in_frozen_rest = pr_enabled && pr_resting && rest_lfo_mode == 1;

// effect_mix smoothly transitions between 1 (effect fully on) and
// 0 (rest target) at rest boundaries. The rest target depends on
// Rest output: dry_l/r (pass-through) for Pass-through, 0 (full
// silence) for Silence. Below, the play-mode wet/dry mix output
// and the rest target are interpolated by effect_mix to produce
// the final spl0/spl1 — soft fade between effect-on and the rest
// state, regardless of which rest target was chosen.
target_effect_mix = pr_enabled && pr_resting ? 0 : 1;
effect_mix        = effect_mix * smooth + target_effect_mix * (1 - smooth);
silence_mode      = (rest_output_mode == 1);

// Advance filter sweep LFO phases unless Freeze rest is pinning them.
!in_frozen_rest ? (
  phase_l += freq / srate;
  phase_l >= 1 ? phase_l -= 1;

  slider14 == 0 ? (
    phase_r += freq / srate;
    phase_r >= 1 ? phase_r -= 1;
  ) : (
    phase_r = phase_l + phase_offset;
    phase_r >= 1 ? phase_r -= 1;
    phase_r < 0  ? phase_r += 1;
  );
);

lfo_l = calc_lfo(phase_l, on_secs, att_secs, rel_secs, period, att_shape, rel_shape);
lfo_r = calc_lfo(phase_r, on_secs, att_secs, rel_secs, period, att_shape, rel_shape);

fcenter = (band_lo + band_hi) * 0.5;
fsize   = (band_hi - band_lo) * 0.5 * depth_pct;

target_freq_l = fcenter + (lfo_l * 2 - 1) * fsize;
target_freq_r = fcenter + (lfo_r * 2 - 1) * fsize;

cut_target_l = target_freq_l * 2 / srate;
cut_target_r = target_freq_r * 2 / srate;

cut_smooth_l = cut_smooth_l * smooth + cut_target_l * (1 - smooth);
cut_smooth_r = cut_smooth_r * smooth + cut_target_r * (1 - smooth);

dry_l = spl0;
dry_r = spl1;

fb_l = eff_resonance + eff_resonance / (1 - cut_smooth_l);
n3   = n3  + cut_smooth_l * (spl0 - n3  + fb_l * (n3  - n4));
n4   = n4  + cut_smooth_l * (n3   - n4);
out_l = n4;

fb_r = eff_resonance + eff_resonance / (1 - cut_smooth_r);
rn3  = rn3 + cut_smooth_r * (spl1 - rn3 + fb_r * (rn3 - rn4));
rn4  = rn4 + cut_smooth_r * (rn3  - rn4);
out_r = rn4;

// Compute the play-mode output (normal wet/dry mix), then blend
// with the rest target via effect_mix. Rest target depends on
// Rest mode: dry_l/r (pass-through) for Walk and Freeze, 0 for
// Silence. The cut_smooth and filter state (n3/n4/rn3/rn4) keep
// running through the filter math even during rest, so the filter
// is "warm" and re-engages cleanly when the gate exits rest.
play_spl0 = eff_dry * dry_l + eff_wet * out_l;
play_spl1 = eff_dry * dry_r + eff_wet * out_r;
rest_spl0 = silence_mode ? 0 : dry_l;
rest_spl1 = silence_mode ? 0 : dry_r;
spl0 = effect_mix * play_spl0 + (1 - effect_mix) * rest_spl0;
spl1 = effect_mix * play_spl1 + (1 - effect_mix) * rest_spl1;

// ===== PAN BLOCK SAMPLE LOGIC START =====
pan_enabled ? (
  // Per-cycle pan modes (0-9) advance pan_cycle_index on filter LFO
  // phase wraps. Since the filter LFO advancement above is gated by
  // !in_frozen_rest, cycle_fired never triggers during Freeze rest
  // — pan_cycle_index naturally pauses without needing its own gate.
  cycle_fired  = (phase_l < last_phase_l);
  last_phase_l = phase_l;

  pan_mode <= 9 ? (
    cycle_fired ? (
      pan_mode == 5 || pan_mode == 7 || pan_mode == 9 ? (
        pan_cycle_index += pan_cycle_dir;
        (pan_cycle_index >= pan_cycle_steps - 1 || pan_cycle_index <= 0) ?
          pan_cycle_dir = -pan_cycle_dir;
      ) : (
        pan_cycle_index = (pan_cycle_index + 1) % pan_cycle_steps;
      );
    );
    cur_pan = percycle_pan(pan_cycle_index, pan_cycle_steps);
    pan_l = cur_pan;

  ) : pan_mode == 10 ? (
    // Pan Sweep — gate phase advance for Freeze mode. eff_pan_sweep_val
    // carries the Pan Sweep Rate drift offset (target 3).
    pan_sweep_mode == 0 ? (pan_freq = eff_pan_sweep_val) :
    pan_sweep_mode == 1 ? (pan_freq = 1 / max(eff_pan_sweep_val, 0.001)) :
                          (pan_freq = eff_pan_sweep_val / 60);
    !in_frozen_rest ? (
      pan_phase += pan_freq / srate;
      pan_phase >= 1 ? pan_phase -= 1;
    );
    cur_pan = (pan_phase * 2.0 - 1.0) * pan_spread;
    pan_l = cur_pan;

  ) : pan_mode == 11 ? (
    // Pan Sweep Flipped — gate phase advance for Freeze mode.
    pan_sweep_mode == 0 ? (pan_freq = eff_pan_sweep_val) :
    pan_sweep_mode == 1 ? (pan_freq = 1 / max(eff_pan_sweep_val, 0.001)) :
                          (pan_freq = eff_pan_sweep_val / 60);
    !in_frozen_rest ? (
      pan_phase += pan_freq / srate;
      pan_phase >= 1 ? pan_phase -= 1;
    );
    cur_pan = (1.0 - pan_phase * 2.0) * pan_spread;
    pan_l = cur_pan;

  ) : (
    // Linked Sweep — gate phase advance for Freeze mode.
    !in_frozen_rest ? (
      pan_phase += (freq * pan_sweep_ratio) / srate;
      pan_phase >= 1 ? pan_phase -= 1;
    );
    cur_pan = (pan_phase * 2.0 - 1.0) * pan_spread;
    pan_l = cur_pan;
  );

  // Glide smoothing — runs always; with phases frozen pan_l stays
  // constant so the smoother converges to it.
  pan_glide_coeff = pan_glide_ms > 0 ? exp(-1 / (srate * pan_glide_ms * 0.001)) : 0;
  pan_l_smooth = pan_l_smooth * pan_glide_coeff + pan_l * (1 - pan_glide_coeff);

  // Apply the pan, then blend with the un-panned signal via
  // effect_mix. During rest, effect_mix → 0 means the output is the
  // un-panned (already dry, since wet was scaled to 0 above) signal.
  pan_pos = (pan_l_smooth + 1.0) * 0.5;
  mono = (spl0 + spl1) * 0.5;
  spl0_panned = mono * cos(pan_pos * $pi * 0.5);
  spl1_panned = mono * sin(pan_pos * $pi * 0.5);
  spl0 = spl0 * (1 - effect_mix) + spl0_panned * effect_mix;
  spl1 = spl1 * (1 - effect_mix) + spl1_panned * effect_mix;
);
// ===== PAN BLOCK SAMPLE LOGIC END =====

);  // close start-delay else branch

@serialize
// Persist per-target drift configurations. Without this, only the
// most-recently-edited target's drift slider values survive a project
// save/load because sliders 34-37 hold whichever target was selected
// at save time. 6 targets × 4 config fields = 24 values; plus the
// selector.
file_mem(0, target_drift_up,    N_TARGETS);
file_mem(0, target_drift_down,  N_TARGETS);
file_mem(0, target_drift_per,   N_TARGETS);
file_mem(0, target_drift_shape, N_TARGETS);
file_var(0, last_target_select);
