desc: Shepard Scale Generator
// Designed by Rozaya, developed with Claude (Anthropic)
//
// This work is dedicated to the public domain under CC0 1.0 Universal.
// https://creativecommons.org/publicdomain/zero/1.0/
//
// A Shepard scale sequencer. Steps through up to 12 chromatic notes (C-B).
// Each note triggers a stack of octave-spaced oscillators. The pitch window
// is exactly as wide as the Octave Count — so each layer is always exactly
// one octave apart and the bell shaping is always consistent. Together this
// creates the Shepard scale illusion — each note sounds higher than the last,
// but after 12 steps you're back where you started.
//
// SKIP vs REST:
//   Skip — inactive notes are skipped; sequence jumps to next active note.
//   Rest — inactive notes hold silence for their full beat duration.
//
// ENVELOPE:
//   Attack and Release shape each note's volume over its beat. The envelope
//   runs continuously from the beat phase — no abrupt resets, no clicks.
//
// CONTROLS:
//   BPM            — Tempo.
//   Direction      — Ascending (C to B) or descending (B to C).
//   Inactive Notes — Skip or Rest behavior.
//   Attack %       — Fraction of beat spent fading in.
//   Release %      — Fraction of beat spent fading out.
//   Note Length %  — How much of each beat the note occupies before silence.
//   Octave Count   — How many octave layers stack per note (2-12), and how
//                    wide the pitch window is. These are the same thing.
//   Center Octave  — Which octave sits at the middle of the stack.
//   Waveform       — Sine is cleanest for the illusion.
//   Binaural Beat  — Right channel Hz offset.
//   Tuning Ref     — A4 reference frequency.
//
// PER NOTE (C through B):
//   Active  — Always visible. Gain and Pan hide when off.
//   Gain dB — Volume of this note.
//   Pan     — Stereo position.

// ===== GLOBAL CONTROLS =====
slider1:120<10,300,0.1>BPM
slider2:0<0,1,1{Asc,Desc}>Direction
slider3:0<0,1,1{Skip,Rest}>Inactive Notes
slider4:10<0,100,0.1>Attack %
slider5:10<0,100,0.1>Release %
slider6:100<1,100,0.1>Note Length %
slider7:8<2,12,1>Octave Count
slider8:4<0,8,1>Center Octave
slider9:0<0,11,1{Sine,Triangle,Saw,Golden TS,Golden SG,Golden GS,Bell,Wavefold,Half-sine,Phi-cascade,Phi Triangle,Phi Sine}>Waveform
slider10:0<0,100,0.1>Binaural Beat Hz
slider11:440<400,480,0.1>Tuning Reference Hz

// ===== NOTES — C through B (3 sliders each: Active, Gain dB, Pan) =====
slider12:1<0,1,1{Off,On}>C Active
slider13:0<-60,6,0.1>C Gain dB
slider14:0<-100,100,0.1>C Pan

slider15:1<0,1,1{Off,On}>C# Active
slider16:0<-60,6,0.1>C# Gain dB
slider17:0<-100,100,0.1>C# Pan

slider18:1<0,1,1{Off,On}>D Active
slider19:0<-60,6,0.1>D Gain dB
slider20:0<-100,100,0.1>D Pan

slider21:1<0,1,1{Off,On}>D# Active
slider22:0<-60,6,0.1>D# Gain dB
slider23:0<-100,100,0.1>D# Pan

slider24:1<0,1,1{Off,On}>E Active
slider25:0<-60,6,0.1>E Gain dB
slider26:0<-100,100,0.1>E Pan

slider27:1<0,1,1{Off,On}>F Active
slider28:0<-60,6,0.1>F Gain dB
slider29:0<-100,100,0.1>F Pan

slider30:1<0,1,1{Off,On}>F# Active
slider31:0<-60,6,0.1>F# Gain dB
slider32:0<-100,100,0.1>F# Pan

slider33:1<0,1,1{Off,On}>G Active
slider34:0<-60,6,0.1>G Gain dB
slider35:0<-100,100,0.1>G Pan

slider36:1<0,1,1{Off,On}>G# Active
slider37:0<-60,6,0.1>G# Gain dB
slider38:0<-100,100,0.1>G# Pan

slider39:1<0,1,1{Off,On}>A Active
slider40:0<-60,6,0.1>A Gain dB
slider41:0<-100,100,0.1>A Pan

slider42:1<0,1,1{Off,On}>A# Active
slider43:0<-60,6,0.1>A# Gain dB
slider44:0<-100,100,0.1>A# Pan

slider45:1<0,1,1{Off,On}>B Active
slider46:0<-60,6,0.1>B Gain dB
slider47:0<-100,100,0.1>B Pan

// Sit silent for N beats after playback starts, then begin normally.
// Beats are counted at the current scale BPM (slider1) so a delay
// value of 4 at 60 BPM is 4 seconds; at 120 BPM it's 2 seconds.
// Re-arms on every transport stop/start. 0 disables the delay.
slider48:0<0,1000,0.01>Start Delay (beats)

// Per-beat Play/Rest gate. Plays N notes normally, then sits silent
// for M beats' worth of time, then resumes — repeats forever. The
// previously-firing note's envelope decays naturally via the existing
// per-note smoother during the start of the rest period, so rest is
// a clean tail-out rather than a hard cut. 0 in either slider
// disables the gate entirely. Resets on every transport stop/start.
// The Rest mode slider below picks between two different rest
// behaviors — see its comment for details.
slider49:0<0,1000,1>Play for (beats)
slider50:0<0,1000,1>Rest for (beats)

// How the sequencer behaves during the rest period.
//   Walk through (default) — the sequencer keeps advancing through
//     notes during rest. Each rest beat moves seq_pos forward
//     silently. If Play + Rest doesn't divide evenly into your
//     active-note count, the starting note of each play period
//     walks across the scale. Notes get "skipped" in the literal
//     sense (the sequencer walks past them silently); they reappear
//     in subsequent play periods at different positions.
//   Freeze in place — the sequencer pauses on the note that would
//     have fired when rest started. Rest duration is Rest for ×
//     one beat (60/BPM seconds). When rest ends, the frozen note
//     fires and the scale continues from there — every note plays
//     in order across multiple cycles, just with pauses between
//     phrases.
slider51:0<0,1,1{Walk through,Freeze in place}>Rest mode

// Speed ramp: signed-delta on BPM. BPM range (10-300) is narrow
// enough that an additive delta in BPM is intuitive. Engage is a
// freeze/resume gate (NOT a restart edge); only transport play
// resets ramp_t.
//
// Migration from v2.7: slider 52 changed from multiplier (0.1-4.0)
// to signed BPM delta (-290 to +180). Old projects' multiplier value
// interprets as a tiny BPM delta — Speed Ramp effectively "off"
// until reconfigured. Default 0 = no change.
slider52:0<-290,180,0.1>Speed ramp by (BPM)
slider53:0<0,60,0.1>Speed ramp duration (minutes)
slider54:0<0,1,1{Off,On}>Speed ramp engage
slider55:0<0,60,0.1>Speed ramp start delay (minutes)

// Per-target drift: nested-selector pattern matching Womb v3 /
// breath gen v2.9 / heartbeat v2.9. Pick a target (slider56), then
// sliders 57-60 hold THAT target's drift config. Switching the
// selector saves current values to the old target's memory slot and
// loads the new target's values into the sliders. All 4 targets drift
// in parallel; the selector just chooses which one you're currently
// editing. Period unit is beats for all 4 targets (everything is
// paced by the BPM clock). For slow wall-clock-feel drift, set a
// long period (~960 beats ≈ 8 min at 120 BPM).
//
// Migration from v2.8: the old flat drift block (musical_up/down/
// period, slow_up/down/period, drift_shape on sliders 56-62) was 7
// sliders covering BPM only. v2.9 is 5 sliders covering 4 independent
// targets, reusing slider IDs 56-60; sliders 61 and 62 are no longer
// declared. Old projects' slider values get reinterpreted (selector
// defaults to BPM; non-zero amounts on 57-58 will produce drift on
// BPM). After upgrade, reset drift sliders to defaults if you'd never
// configured the old flat drift, or reconfigure under the new
// nested-selector pattern if you had.
slider56:0<0,3,1{BPM,Note Length %,Attack %,Release %}>Drift target
slider57:0<0,100,0.1>Drift up amount (units match target)
slider58:0<0,100,0.1>Drift down amount (units match target)
slider59:8<1,1000,1>Drift period (beats)
slider60:0<0,2,1{Sine,Triangle,Random}>Drift shape


@init
ext_noinit = 1;   // preserve drift config bank across transport play (drift runtime + state machine still reset on play, see transport edge handler in @sample)

PHI = 1.6180339887;
NUM_OSC = 12; // max octave layers per note

// Memory: note 0-11, osc 0-11 → index = note * NUM_OSC + osc (max 144 slots)
osc_freq    = 0;   // 0-143:   fixed frequency per oscillator
osc_phase_l = 144; // 144-287: oscillator phase left
osc_phase_r = 288; // 288-431: oscillator phase right
osc_gain    = 432; // 432-575: smoothed gain per oscillator

// Per-note (12 slots each)
n_active    = 576; // 576-587
n_gain_lin  = 588; // 588-599
n_pan       = 600; // 600-611
n_root      = 612; // 612-623: root Hz for each note
n_env       = 624; // 624-635: per-note envelope gain (smoothed)

// Sequencer state
seq_pos   = 0;   // current note index 0-11
seq_phase = 0.0; // position in current beat 0-1

smooth_gain = 0; // set in @slider
needs_init   = 1;
last_num_osc = 0;
last_center  = -1;
last_tuning  = -1;

i = 0;
loop(12, n_env[i] = 0; i += 1;);

i = 0;
loop(144,
  osc_freq[i]    = 1; // 1Hz placeholder — avoids log(0)
  osc_phase_l[i] = 0;
  osc_phase_r[i] = 0;
  osc_gain[i]    = 0;
  i += 1;
);

function note_to_hz(semitone, oct, tref) (
  // semitone 0=C ... 11=B, oct=octave number, tref=A4 Hz
  tref * pow(2, (oct * 12 + semitone - 57) / 12.0)
);

// Waveform dispatch — kept in sync with Polyrhythm Phase / Melody Phase
// so all four plugins offer the same palette. See those plugins' source
// for the canonical comment blocks on each waveform. Note that the
// Golden TS / SG slots are the polyrhythm-compatible (sine-output)
// versions, not the manual's strict reading — Phi Triangle / Phi Sine
// are the strict-reading variants. See rozaya-jsfx/CLAUDE.md for why.
function wave_sample(ph) (
  waveform == 0 ? sin(ph * 2 * $pi) :
  waveform == 1 ? (ph < 0.25 ? ph*4 : ph < 0.75 ? 2-ph*4 : ph*4-4) :
  waveform == 2 ? (ps = ph+0.5; ps-=floor(ps); ps*2-1) :
  waveform == 3 ? (
    pg = ph<(1/PHI) ? ph*PHI*0.5 : 0.5+(ph-1/PHI)/(1-1/PHI)*0.5;
    sin(pg*2*$pi)
  ) :
  waveform == 4 ? (
    pg = (sin((ph-0.25)*2*$pi)+1)*0.5;
    pg = pg<(1/PHI) ? pg*PHI*0.5 : 0.5+(pg-1/PHI)/(1-1/PHI)*0.5;
    sin(pg*2*$pi)
  ) :
  waveform == 5 ? (
    pg = ph+(1/PHI)*sin(ph*2*$pi)/(2*$pi); pg-=floor(pg); sin(pg*2*$pi)
  ) :
  waveform == 6 ? (
    // Bell — additive partials at 1, 2, 3, 4, 6
    0.55*sin(ph*2*$pi) + 0.25*sin(ph*4*$pi) + 0.10*sin(ph*6*$pi)
      + 0.07*sin(ph*8*$pi) + 0.03*sin(ph*12*$pi)
  ) :
  waveform == 7 ? sin(2 * sin(ph * 2 * $pi)) :          // Wavefold
  waveform == 8 ? (2 * abs(sin(ph * 2 * $pi)) - 1) :    // Half-sine (octave up; see Polyrhythm Phase docs)
  waveform == 9 ? (
    // Phi-cascade — fundamental + φ⁻¹·2nd + φ⁻²·3rd
    sin(ph*2*$pi) + (1/PHI)*sin(ph*4*$pi) + (1/(PHI*PHI))*sin(ph*6*$pi)
  ) :
  waveform == 10 ? (
    // Phi Triangle — manual-correct "Golden TS" (warp → triangle)
    pg = ph<(1/PHI) ? ph*PHI*0.5 : 0.5+(ph-1/PHI)/(1-1/PHI)*0.5;
    pg < 0.5 ? 4*pg - 1 : 3 - 4*pg
  ) : (
    // Phi Sine — manual-correct "Golden SG" (clean warp → sine, no prewarp)
    pg = ph<(1/PHI) ? ph*PHI*0.5 : 0.5+(ph-1/PHI)/(1-1/PHI)*0.5;
    sin(pg*2*$pi)
  )
);

// Bell gain: cosine rolloff centered on center_freq.
// half_width_oct is half the total window width in octaves (== num_osc / 2).
function bell_gain(f, f_center, half_width_oct) (
  dist = (log(f) - log(f_center)) / log(2);
  abs(dist) >= half_width_oct ? 0 :
  0.5 + 0.5 * cos(dist / half_width_oct * $pi)
);

// Beat envelope: cosine attack/release over beat phase 0-1
function beat_env(ph, att, rel) (
  att + rel > 1.0 ? (t = att+rel; att/=t; rel/=t;);
  ph < att ? (att > 0 ? 0.5 - 0.5*cos(ph/att*$pi) : 1) :
  ph > (1-rel) ? (rel > 0 ? 0.5 - 0.5*cos((1-ph)/rel*$pi) : 0) :
  1
);

// Initialize oscillator frequencies for all 12 notes.
// Window is exactly num_osc octaves wide centered on center_freq.
// Each note gets num_osc oscillators at exact octave steps, starting from
// the octave of the root nearest to center_freq.
function init_oscs() (
  n = 0;
  loop(12,
    root = n_root[n];
    // Find octave of root nearest to center_freq
    center_oct_offset = floor(log(center_freq / root) / log(2) + 0.5);
    root_near_center  = root * pow(2, center_oct_offset);

    // Place oscillators at exact octave steps above root_near_center,
    // wrapping back down when they exceed the window top.
    // Window == num_osc octaves wide, so wrap is always exact.
    o = 0;
    loop(NUM_OSC,
      oi = n * NUM_OSC + o;
      o < num_osc ? (
        f = root_near_center * pow(2, o);
        f > pitch_hi ? f *= pitch_lo / pitch_hi;
      ) : (
        f = root_near_center; // park extra slots — osc_gain stays 0
      );
      osc_freq[oi]    = f;
      osc_phase_l[oi] = 0;
      osc_phase_r[oi] = 0;
      osc_gain[oi]    = 0;
      o += 1;
    );
    n += 1;
  );
);

// Start Delay state.
last_play_state     = 0;
start_delay_elapsed = 0;
start_delay_sec     = 0;

// Play/Rest gate state. pr_step counts beats in the current play
// (or rest) period. Init to 1 because the first audible note (whatever
// seq_pos points at initially, default 0 = C) plays from sample 0
// without going through a beat boundary — so that note IS step 1 of
// the first play period. Subsequent beats increment pr_step at each
// boundary fire.
pr_resting               = 0;
pr_step                  = 1;
play_for_beats           = 0;
rest_for_beats           = 0;
pr_enabled               = 0;
rest_mode                = 0;
pr_rest_elapsed          = 0;
pr_rest_duration_samples = 0;

// Speed ramp state.
// Speed Ramp state. Engage is a freeze/resume gate, not an edge;
// only transport play resets ramp_t.
speed_ramp_t             = 0.0;
speed_ramp_delay_elapsed = 0;

// --- v2.9 Drift target memory banks ---
//
// 4 targets × 8 fields = 32 slots. Each array is 16-slot-spaced so
// targets can grow up to 16 later without re-laying-out. Placed at
// 640 — right after n_env (which ends at 635), no overlap with
// per-osc / per-note state.
//
// Targets:
//   0 = BPM             (units: BPM)
//   1 = Note Length %   (units: %, drift sums into slider6 before /100)
//   2 = Attack %        (units: %, drift sums into slider4 before /100)
//   3 = Release %       (units: %, drift sums into slider5 before /100)
N_TARGETS = 4;
target_drift_up     = 640;
target_drift_down   = 656;
target_drift_per    = 672;
target_drift_shape  = 688;
target_drift_phase  = 704;
target_drift_prev   = 720;
target_drift_curr   = 736;
target_drift_offset = 752;

i = 0;
loop(N_TARGETS,
  target_drift_up[i]     = 0;
  target_drift_down[i]   = 0;
  target_drift_per[i]    = 8;
  target_drift_shape[i]  = 0;
  target_drift_phase[i]  = 0;
  target_drift_prev[i]   = 0;
  target_drift_curr[i]   = 0;
  target_drift_offset[i] = 0;
  i += 1;
);

// Last-selected drift target tracker for save/restore on selector change.
last_target_select = 0;


@slider

bpm           = slider1;
direction     = slider2;
skip_mode     = slider3;
attack_frac   = slider4 / 100.0;
release_frac  = slider5 / 100.0;
note_len_frac = slider6 / 100.0;
num_osc       = max(2, min(12, floor(slider7 + 0.5)));
center_oct    = floor(slider8 + 0.5);
waveform      = slider9;
binaural_hz   = slider10;
tuning_ref    = slider11;

// Pitch window: exactly num_osc octaves wide, centered on C in center_oct.
// Using C as anchor so the octave grid aligns with the chromatic root grid (C-B).
// Window width == num_osc means spacing is always exactly 1 octave.
center_freq = tuning_ref * pow(2, (center_oct * 12 - 57) / 12.0); // C4=261.63 at oct=4
half_width  = num_osc * 0.5;
pitch_lo    = center_freq * pow(2, -half_width);
pitch_hi    = center_freq * pow(2,  half_width);

beat_hz = bpm / 60.0;

// Smooth constant for osc gain changes (~5ms)
smooth_gain = exp(-1 / (srate * 0.005));

// Read per-note sliders
n = 0;
loop(12,
  base = 12 + n * 3;
  n_active[n]   = slider(base);
  n_gain_lin[n] = pow(10, slider(base + 1) / 20.0);
  n_pan[n]      = slider(base + 2);
  // Roots at octave 4 — bell centers on center_oct via center_freq
  n_root[n]     = note_to_hz(n, 4, tuning_ref);
  // Show gain and pan only when active
  slider_show(base + 1, n_active[n]);
  slider_show(base + 2, n_active[n]);
  n += 1;
);

// Reinit when oscillator layout needs to change
(num_osc != last_num_osc || center_oct != last_center || tuning_ref != last_tuning) ? (
  needs_init   = 1;
  last_num_osc = num_osc;
  last_center  = center_oct;
  last_tuning  = tuning_ref;
);

// Start Delay: convert beats to seconds at the current scale BPM.
start_delay_sec = slider48 * 60 / max(bpm, 1);

// Play/Rest gate: integer beat counts. Both must be > 0 for the
// gate to engage; 0 in either slider disables.
play_for_beats = slider49;
rest_for_beats = slider50;
pr_enabled     = (play_for_beats > 0 && rest_for_beats > 0);
rest_mode      = slider51;

// Speed ramp engage-edge.
// No engage-edge detection. Engage is a freeze/resume gate handled
// in @sample. Only transport play resets ramp_t.

// Drift target selector save/restore (nested-selector pattern).
// Switching slider56 saves sliders 57-60 into the OLD target's slot,
// then loads the NEW target's stored config into sliders 57-60.
// Otherwise captures live edits to the current target's slot. All 4
// targets drift in parallel from @sample regardless of selection.
sel_target = slider56;
sel_up     = slider57;
sel_down   = slider58;
sel_per    = slider59;
sel_shape  = slider60;

last_target_select != sel_target ? (
  target_drift_up[last_target_select]    = sel_up;
  target_drift_down[last_target_select]  = sel_down;
  target_drift_per[last_target_select]   = sel_per;
  target_drift_shape[last_target_select] = sel_shape;

  slider57 = target_drift_up[sel_target];
  slider58 = target_drift_down[sel_target];
  slider59 = target_drift_per[sel_target];
  slider60 = target_drift_shape[sel_target];
  slider_automate(slider57);
  slider_automate(slider58);
  slider_automate(slider59);
  slider_automate(slider60);

  last_target_select = sel_target;
) : (
  target_drift_up[sel_target]    = sel_up;
  target_drift_down[sel_target]  = sel_down;
  target_drift_per[sel_target]   = sel_per;
  target_drift_shape[sel_target] = sel_shape;
);


@sample

// Transport play edge: fresh start. v2.9 uses ext_noinit = 1 so drift
// CONFIG bank survives across transport — but everything else needs
// explicit reset here so renders are deterministic (drift cycle at
// phase 0, sequencer at first note, envelopes clean, oscillator phases
// reseeded). Matches breath_gen v2.9 / the suite rule.
play_state > 0 && last_play_state == 0 ? (
  // Start Delay + Speed Ramp progress.
  start_delay_elapsed      = 0;
  speed_ramp_t             = 0.0;
  speed_ramp_delay_elapsed = 0;

  // Drift runtime state (NOT the config bank).
  i = 0;
  loop(N_TARGETS,
    target_drift_phase[i]  = 0;
    target_drift_prev[i]   = 0;
    target_drift_curr[i]   = 0;
    target_drift_offset[i] = 0;
    i += 1;
  );

  // Sequencer state: back to first note, beat clean.
  seq_pos   = 0;
  seq_phase = 0.0;

  // Per-note envelopes back to 0.
  i = 0;
  loop(12, n_env[i] = 0; i += 1;);

  // Force oscillator re-init on first sample (rebuilds phases + gains).
  needs_init = 1;

  // Play/Rest gate state.
  pr_resting               = 0;
  pr_step                  = 1;
  pr_rest_elapsed          = 0;
  pr_rest_duration_samples = 0;
);
last_play_state = play_state;

// Advance speed_ramp_t while engaged + duration > 0 + past start
// delay. Engage off freezes ramp_t; engaging on resumes from there.
slider54 && slider53 > 0 ? (
  speed_ramp_delay_samples = slider55 * 60 * srate;
  speed_ramp_delay_elapsed < speed_ramp_delay_samples ? (
    speed_ramp_delay_elapsed += 1;
  ) : (
    speed_ramp_t += 1.0 / (srate * slider53 * 60);
    speed_ramp_t = min(speed_ramp_t, 1.0);
  );
);

// Speed Ramp's BPM offset (signed delta). Added to effective_bpm
// below alongside drift offsets. Drift wave's phase advance uses a
// Speed-Ramp-adjusted beat_hz so the wave's period in beats tracks
// Speed Ramp's effect on tempo.
speed_ramp_bpm_offset = speed_ramp_t * slider52;
sr_adjusted_bpm       = max(bpm + speed_ramp_bpm_offset, 10);
sr_adjusted_beat_hz   = sr_adjusted_bpm / 60.0;

// Per-target drift wave computation. 4 targets (0=BPM, 1=Note Length%,
// 2=Attack%, 3=Release%). Each gets a phase counter advancing per
// sample at rate 1 / (period_beats * samples_per_speed_ramp_adjusted_beat).
// All 4 targets share the speed-ramp-adjusted beat as their period
// reference so drift on BPM doesn't self-modulate its own rate.
i = 0;
loop(N_TARGETS,
  up    = target_drift_up[i];
  down  = target_drift_down[i];
  per   = target_drift_per[i];
  shape = target_drift_shape[i];

  drift_offset_local = 0;
  (up > 0 || down > 0) && per > 0 ? (
    period_samples = max(per * srate / max(sr_adjusted_beat_hz, 0.0001), 1);
    new_phase = target_drift_phase[i] + 1.0 / period_samples;
    new_phase >= 1.0 ? (
      new_phase -= 1.0;
      shape == 2 ? (
        target_drift_prev[i] = target_drift_curr[i];
        target_drift_curr[i] = rand(2) - 1;
      );
    );
    target_drift_phase[i] = new_phase;

    shape == 0 ? (
      shape_val = sin(2 * $pi * new_phase);
    ) : shape == 1 ? (
      shape_val = new_phase < 0.25 ? (4 * new_phase) :
                  new_phase < 0.75 ? (2 - 4 * new_phase) :
                                     (4 * new_phase - 4);
    ) : (
      shape_val = target_drift_prev[i] +
        (target_drift_curr[i] - target_drift_prev[i]) * new_phase;
    );
    drift_offset_local = shape_val > 0 ? shape_val * up : shape_val * down;
  );
  target_drift_offset[i] = drift_offset_local;
  i += 1;
);

// Effective BPM: baseline + BPM drift + Speed Ramp delta, clamped at
// 10 BPM. Drift offsets for note length / attack / release fold into
// effective fractional values below.
effective_bpm = max(bpm + target_drift_offset[0] + speed_ramp_bpm_offset, 10);
effective_beat_hz = effective_bpm / 60.0;

// Effective note shape parameters: baseline % + drift offset (in %),
// converted to 0..1 fractions. Clamp to keep envelope math sane.
effective_note_len_frac = max(0.001, min(1.0, (slider6 + target_drift_offset[1]) / 100.0));
effective_attack_frac   = max(0,     min(1.0, (slider4 + target_drift_offset[2]) / 100.0));
effective_release_frac  = max(0,     min(1.0, (slider5 + target_drift_offset[3]) / 100.0));

start_delay_elapsed < start_delay_sec ? (
  start_delay_elapsed += 1 / srate;
  spl0 = 0;
  spl1 = 0;
) : (

needs_init ? (
  init_oscs();
  needs_init = 0;
);

// Advance beat phase — unless we're in a Freeze-mode Play/Rest
// pause, in which case the sequencer is paused on the would-be-next
// note and seq_phase stays put until the rest timer (further down)
// fires us back into the play period. seq_phase advances at the
// effective_beat_hz (which already includes Speed Ramp's BPM offset
// + drift offsets).
in_frozen_rest = pr_enabled && pr_resting && rest_mode == 1;
!in_frozen_rest ? seq_phase += effective_beat_hz / srate;

// On beat boundary: advance sequencer to next note
seq_phase >= 1.0 ? (
  seq_phase -= 1.0;

  direction == 0 ? (
    next = (seq_pos + 1) % 12;
    skip_mode == 0 ? (
      tries = 0;
      loop(12,
        tries < 12 && !n_active[next] ? (next = (next+1)%12; tries+=1;);
      );
    );
  ) : (
    next = (seq_pos + 11) % 12;
    skip_mode == 0 ? (
      tries = 0;
      loop(12,
        tries < 12 && !n_active[next] ? (next = (next+11)%12; tries+=1;);
      );
    );
  );

  // Play/Rest gate. Check whether the beat we just completed took us
  // to the threshold for the current period; if so, flip play↔rest
  // and reset the counter. Then increment for the beat we're about
  // to (maybe) play. In Walk mode, seq_pos always advances to `next`
  // regardless of pr_resting; the env_target gate further down
  // suppresses audio during rest. In Freeze mode, seq_pos also
  // advances to `next` at the rest-entry boundary (so the frozen
  // note is the would-be-next note), but seq_phase is then pinned
  // by in_frozen_rest above so no further boundary fires until
  // rest exits.
  pr_enabled ? (
    pr_step >= (pr_resting ? rest_for_beats : play_for_beats) ? (
      just_entered_rest = !pr_resting;
      pr_resting = 1 - pr_resting;
      pr_step    = 0;
      just_entered_rest && rest_mode == 1 ? (
        // Freeze-mode rest entry: compute rest duration in samples
        // based on one beat at the current BPM. Same formula every
        // cycle (BPM is global) — unlike Melody Phase where each
        // voice's Next voice in could vary.
        pr_rest_duration_samples = rest_for_beats * srate / effective_beat_hz;
        pr_rest_elapsed = 0;
      );
    );
    pr_step += 1;
  );

  seq_pos = next;
);

// Freeze-mode rest timer. While Rest mode = Freeze AND we're in
// the rest period, count samples elapsed. When the threshold hits,
// exit rest and reset pr_step to 1 so the next beat counts as step 1
// of the new play period. seq_phase is already ~0 (we last touched
// it at the boundary that triggered rest) so the frozen note's beat
// envelope starts cleanly from the beat origin on the next sample.
// The pr_rest_duration_samples > 0 guard handles the edge case where
// the user changes Rest mode mid-rest — without the duration being
// set, the comparison would fire immediately and snap out of rest
// with inconsistent state.
pr_enabled && pr_resting && rest_mode == 1 && pr_rest_duration_samples > 0 ? (
  // Scale rest accumulation by Speed Ramp's effect on tempo so the
  // rest duration tracks effective tempo (faster ramp = shorter
  // rest wall-clock, slower ramp = longer). Use Speed-Ramp-adjusted
  // factor (excludes drift, matches the old combined_scale semantic).
  pr_rest_elapsed += sr_adjusted_bpm / max(bpm, 1);
  pr_rest_elapsed >= pr_rest_duration_samples ? (
    pr_resting               = 0;
    pr_step                  = 1;
    pr_rest_duration_samples = 0;
  );
);

cur = seq_pos;
out_l = 0;
out_r = 0;

n = 0;
loop(12,
  // Envelope target: current active note gets beat shape, all others decay to 0.
  // During Play/Rest's rest period, force env_target = 0 for the current note
  // too — the per-note smoother (n_env) handles the natural tail-out of whatever
  // was playing when rest started.
  n == cur && n_active[cur] && (!pr_enabled || !pr_resting) ? (
    seq_phase < effective_note_len_frac ? (
      env_target = beat_env(seq_phase / effective_note_len_frac, effective_attack_frac, effective_release_frac);
    ) : (
      env_target = 0;
    );
  ) : (
    env_target = 0;
  );

  // Smooth envelope — no resets, no clicks
  n_env[n] = n_env[n] * smooth_gain + env_target * (1 - smooth_gain);

  n_env[n] > 0.0001 ? (
    pan_val   = n_pan[n] / 100.0;
    pan_l_amt = cos((pan_val + 1) * 0.25 * $pi);
    pan_r_amt = sin((pan_val + 1) * 0.25 * $pi);

    o = 0;
    loop(num_osc,
      oi = n * NUM_OSC + o;

      bg = bell_gain(osc_freq[oi], center_freq, half_width);
      target_gain = bg * n_gain_lin[n] * n_env[n];
      osc_gain[oi] = osc_gain[oi] * smooth_gain + target_gain * (1 - smooth_gain);

      osc_phase_l[oi] += osc_freq[oi] / srate;
      osc_phase_l[oi] >= 1 ? osc_phase_l[oi] -= 1;
      osc_phase_r[oi] += (osc_freq[oi] + binaural_hz) / srate;
      osc_phase_r[oi] >= 1 ? osc_phase_r[oi] -= 1;

      out_l += wave_sample(osc_phase_l[oi]) * osc_gain[oi] * pan_l_amt;
      out_r += wave_sample(osc_phase_r[oi]) * osc_gain[oi] * pan_r_amt;

      o += 1;
    );
  );

  n += 1;
);

// Normalize by oscillator count. Gain smoothing handles crossfade level.
norm = 1.0 / max(num_osc, 1);
spl0 = out_l * norm;
spl1 = out_r * norm;

);  // close start-delay else branch

@serialize
// Persist per-target drift configurations. Without this, only the
// most-recently-edited target's drift slider values survive a project
// save/load because sliders 57-60 hold whichever target was selected
// at save time. 4 targets × 4 config fields = 16 values; plus the
// selector.
file_mem(0, target_drift_up,    N_TARGETS);
file_mem(0, target_drift_down,  N_TARGETS);
file_mem(0, target_drift_per,   N_TARGETS);
file_mem(0, target_drift_shape, N_TARGETS);
file_var(0, last_target_select);
