desc: Sweep Dwell Filter
// Designed by Rozaya, developed with Claude (Anthropic)
//
// This work is dedicated to the public domain under CC0 1.0 Universal.
// https://creativecommons.org/publicdomain/zero/1.0/

slider1:500<20,20000,1>Frequency Low Hz
slider2:5000<20,20000,1>Frequency High Hz
slider3:4<0.001,60,0.001>High Dwell sec
slider4:6<0.001,60,0.001>Low Dwell sec
slider5:1<0.001,30,0.001>Fade Down sec
slider6:1<0,3,1{Linear,Cosine,Logarithmic,Exponential}>Fade Down Shape
slider7:1<0.001,30,0.001>Fade Up sec
slider8:1<0,3,1{Linear,Cosine,Logarithmic,Exponential}>Fade Up Shape
slider9:0.7<0,1,0.01>Resonance
slider10:1<0,1,0.01>Wet/Dry Mix
slider11:0<-180,180,0.1>Stereo Phase Offset degrees
slider12:0<0,1,1{Independent L+R,Offset from L}>Phase Mode
// ===== PAN BLOCK SLIDERS START =====
slider13:0<0,1,1{Off,On}>Pan Enabled
slider14:0<0,12,1{Mono,Alternating,Alternating (Flipped),Distributed,Distributed (Flipped),Distributed (Ping-pong),Converging,Converging (Ping-pong),Diverging,Diverging (Ping-pong),Pan Sweep,Pan Sweep (Flipped),Linked Sweep}>Pan Mode
slider15:1<0,1,0.01>Pan Spread (0=mono, 1=full)
slider16:5<0,100,0.1>Pan Glide ms (0=instant)
slider17:8<2,32,1>Cycle Steps (per-cycle modes)
slider18:2<0.001,1000,0.001>Pan Sweep Rate
slider19:0<0,2,1{Hz,Seconds,BPM}>Pan Sweep Rate Unit
slider20:1<0.125,8,0.125>Filter Speed Multiplier (Linked Sweep)
// ===== PAN BLOCK SLIDERS END =====

// Pass-through for N seconds after playback starts, then apply the
// sweep-dwell filter + pan effect normally. As an EFFECT plugin the
// dry signal passes through during the delay. Re-arms on every
// transport stop/start. 0 disables the delay.
slider21:0<0,1000,0.001>Start Delay (seconds)

// Per-cycle Play/Rest gate. Effect is applied normally for N
// cycles, then enters its rest period for M cycles, then resumes
// — repeats forever. One "cycle" is one full dwell pattern (High
// Dwell + Fade Down + Low Dwell + Fade Up). So with the default
// settings (4 + 1 + 6 + 1 = 12 sec/cycle), "Play for = 4" plays
// 48 seconds of the sweep before entering rest. The LFO at rest /
// Output at rest sliders below pick what happens during rest.
// 0 in either slider disables the gate. Resets on every transport
// stop/start.
slider22:0<0,1000,1>Play for (cycles)
slider23:0<0,1000,1>Rest for (cycles)

// What the LFOs do during the rest period.
//   Walk through (default) — filter dwell LFO and pan LFOs keep
//     cycling during rest. When the effect resumes, the LFOs are
//     at new positions reflecting wall-clock time passed.
//   Freeze in place — LFO phases pause, frozen at their values at
//     rest entry. When the effect resumes, the cutoff picks up
//     from the same position. The dwell pattern pauses and
//     resumes in lockstep with the gate.
slider24:0<0,1,1{Walk through,Freeze in place}>LFO at rest

// What the output does during the rest period.
//   Pass-through (default) — dry signal passes through unchanged
//     (matches Start Delay's behavior).
//   Silence — wet+dry mix smooths to 0; audio fades into silence
//     instead of passing dry. Useful when you want the gate to
//     act like a hard mute rather than a filter bypass.
slider25:0<0,1,1{Pass-through,Silence}>Output at rest

// Speed ramp: nested-selector pattern matching Womb v3 / breath_gen.
// Pick a target (one of the 4 dwell sliders), set a signed `by`
// amount in seconds; that dwell phase's length ramps from its
// baseline toward `baseline + by` over the duration. All 4 targets
// ramp in parallel; the selector just changes which one's amount
// you're editing. Engage is a freeze/resume gate (NOT a restart
// edge); only transport play resets ramp_t.
//
// Migration from v2.7: slider 26 changed from multiplier (0.1-4.0)
// to a 4-option target selector. Old projects' multiplier value
// rounds down to a selector index, and slider 29 (the new `by`)
// defaults to 0 — so Speed Ramp produces no effect on reload until
// reconfigured.
slider26:0<0,3,1{High dwell,Fade down,Low dwell,Fade up}>Speed ramp target
slider27:0<0,60,0.1>Speed ramp duration (minutes)
slider28:0<0,1,1{Off,On}>Speed ramp engage
slider29:0<-60,60,0.001>Speed ramp by (seconds)

// Musical drift: drifts the dwell-pattern period by up to N seconds
// up and N seconds down, over a cycle measured in dwell patterns.
// Scales with Speed Ramp (when the pattern slows, musical drift
// slows with it). 0 in both Up by and Down by disables.
slider30:0<0,2,0.01>Musical drift: Up by
slider31:0<0,2,0.01>Musical drift: Down by
slider32:8<1,1000,1>Musical drift: Period (cycles)

// Slow drift: same shape as musical drift, but measured in wall-clock
// minutes per drift cycle. Does NOT scale with Speed Ramp.
slider33:0<0,2,0.01>Slow drift: Up by
slider34:0<0,2,0.01>Slow drift: Down by
slider35:5<0.1,60,0.1>Slow drift: Period (minutes)

// Drift shape applies to BOTH drift sources.
slider36:0<0,2,1{Sine,Triangle,Random}>Drift shape

// Speed ramp start delay (lives here because slider 29 took the
// post-engage slot for the new `by` amount).
slider37:0<0,60,0.1>Speed ramp start delay (minutes)

in_pin:left input
in_pin:right input
out_pin:left output
out_pin:right output

@init
phase_l = 0;
phase_r = 0;
n3 = n4 = rn3 = rn4 = 0;
cut_smooth_l = cut_smooth_r = 0.1;

// ===== PAN BLOCK INIT START =====
pan_l           = 0;
pan_l_smooth    = 0;
pan_cycle_index = 0;
pan_cycle_dir   = 1;
last_phase_l    = 0;
pan_phase       = 0;
// ===== PAN BLOCK INIT END =====


function apply_curve(t, shape) (
  shape == 0 ? t :
  shape == 1 ? 0.5 - 0.5 * cos(t * $pi) :
  shape == 2 ? log(1 + 9*t) / log(10) :
               (10^t - 1) / 9
);

function calc_lfo(ph, high_secs, low_secs, fade_down_secs, fade_up_secs, fade_down_shape, fade_up_shape)
local(period, high_frac, fade_down_frac, low_frac, fade_up_frac, t, result) (
  period         = high_secs + fade_down_secs + low_secs + fade_up_secs;
  high_frac      = high_secs / period;
  fade_down_frac = fade_down_secs / period;
  low_frac       = low_secs / period;
  fade_up_frac   = fade_up_secs / period;
  ph < high_frac ? (
    result = 1;
  ) :
  ph < high_frac + fade_down_frac ? (
    fade_down_frac > 0.0001 ? (
      t = (ph - high_frac) / fade_down_frac;
      result = 1 - apply_curve(t, fade_down_shape);
    ) : (result = 0);
  ) :
  ph < high_frac + fade_down_frac + low_frac ? (
    result = 0;
  ) : (
    fade_up_frac > 0.0001 ? (
      t = (ph - high_frac - fade_down_frac - low_frac) / fade_up_frac;
      result = apply_curve(t, fade_up_shape);
    ) : (result = 1);
  );
  result
);

// ===== PAN BLOCK FUNCTIONS START =====
function percycle_pan(idx, n_steps) local(steps, step, pos) (
  n_steps = max(n_steps, 1);
  steps   = max(ceil((n_steps - 1) / 2.0), 1);

  pan_mode == 0 ? (
    pos = 0;
  ) : pan_mode == 1 ? (
    pos = (idx % 2 == 0) ? -1 : 1;
  ) : pan_mode == 2 ? (
    pos = (idx % 2 == 0) ? 1 : -1;
  ) : pan_mode == 3 ? (
    n_steps > 1 ? (pos = (idx % n_steps) / (n_steps - 1.0) * 2.0 - 1.0) : (pos = 0);
  ) : pan_mode == 4 ? (
    n_steps > 1 ? (pos = 1.0 - (idx % n_steps) / (n_steps - 1.0) * 2.0) : (pos = 0);
  ) : pan_mode == 5 ? (
    n_steps > 1 ? (pos = idx / (n_steps - 1.0) * 2.0 - 1.0) : (pos = 0);
  ) : pan_mode == 6 ? (
    idx = idx % n_steps;
    idx == 0 ? (
      pos = -1.0;
    ) : (
      step = ceil((idx + 1) / 2);
      pos = (idx % 2 == 1) ?  (1.0 - (step - 1.0) / steps)
                            : -(1.0 - (step - 1.0) / steps);
      pos = max(-1.0, min(1.0, pos));
    );
  ) : pan_mode == 7 ? (
    idx = idx % n_steps;
    idx == 0 ? (
      pos = -1.0;
    ) : (
      step = ceil((idx + 1) / 2);
      pos = (idx % 2 == 1) ?  (1.0 - (step - 1.0) / steps)
                            : -(1.0 - (step - 1.0) / steps);
      pos = max(-1.0, min(1.0, pos));
    );
  ) : pan_mode == 8 ? (
    idx = idx % n_steps;
    idx == 0 ? (
      pos = 0.0;
    ) : (
      step = floor((idx + 1) / 2);
      pos = (idx % 2 == 1) ? -(step / steps)
                            :  (step / steps);
      pos = max(-1.0, min(1.0, pos));
    );
  ) : pan_mode == 9 ? (
    idx = idx % n_steps;
    idx == 0 ? (
      pos = 0.0;
    ) : (
      step = floor((idx + 1) / 2);
      pos = (idx % 2 == 1) ? -(step / steps)
                            :  (step / steps);
      pos = max(-1.0, min(1.0, pos));
    );
  ) : (
    pos = 0;
  );

  pos * pan_spread
);
// ===== PAN BLOCK FUNCTIONS END =====

// Start Delay state.
last_play_state     = 0;
start_delay_elapsed = 0;
start_delay_sec     = 0;

// Play/Rest gate state. Same per-cycle counter + effect_mix design
// used in the other effect plugins. effect_mix smoothly transitions
// between 1 (effect on) and 0 (rest target — either dry pass-through
// or silence, picked by Output at rest).
pr_resting        = 0;
pr_cycle_progress = 0;
play_for_cycles   = 0;
rest_for_cycles   = 0;
pr_enabled        = 0;
rest_lfo_mode     = 0;
rest_output_mode  = 0;
effect_mix        = 1;

// Speed ramp state.
// Speed Ramp state. Per-target memory bank for 4 dwell amounts.
// Engage is a freeze/resume gate, not an edge; only transport play
// resets ramp_t.
N_SPEED_TARGETS              = 4;
speed_ramp_target_value_mem  = 4096;
i = 0;
loop(N_SPEED_TARGETS, speed_ramp_target_value_mem[i] = 0; i += 1;);
last_speed_target            = 0;
speed_ramp_t                 = 0.0;
speed_ramp_delay_elapsed     = 0;

// Drift state. Two independent drift sources (musical, slow) share
// the same shape selector. Phases advance per @sample, mod 1. For
// Random shape, prev/curr targets are randomized on each phase wrap.
musical_drift_phase = 0;
slow_drift_phase    = 0;
musical_drift_prev_target = 0;
musical_drift_curr_target = 0;
slow_drift_prev_target    = 0;
slow_drift_curr_target    = 0;


@slider

freq_lo         = min(slider1, slider2);
freq_hi         = max(slider1, slider2);
high_secs       = slider3;
low_secs        = slider4;
fade_down_secs  = slider5;
fade_down_shape = slider6;
fade_up_secs    = slider7;
fade_up_shape   = slider8;
resonance       = slider9;
wet             = slider10;
dry             = 1 - wet;
phase_offset    = slider11 / 360;

// ===== PAN BLOCK SLIDER READ START =====
pan_enabled     = slider13;
pan_mode        = slider14;
pan_spread      = slider15;
pan_glide_ms    = slider16;
pan_cycle_steps = slider17;
pan_sweep_val   = slider18;
pan_sweep_mode  = slider19;
pan_sweep_ratio = slider20;

slider_show(slider14, pan_enabled);
slider_show(slider15, pan_enabled);
slider_show(slider16, pan_enabled);
slider_show(slider17, pan_enabled && pan_mode >= 1 && pan_mode <= 9);
slider_show(slider18, pan_enabled && (pan_mode == 10 || pan_mode == 11));
slider_show(slider19, pan_enabled && (pan_mode == 10 || pan_mode == 11));
slider_show(slider20, pan_enabled && pan_mode == 12);
// ===== PAN BLOCK SLIDER READ END =====

start_delay_sec = slider21;

// Play/Rest gate: integer cycle counts. Both must be > 0 for the
// gate to engage; 0 in either slider disables.
play_for_cycles = slider22;
rest_for_cycles = slider23;
new_pr_enabled  = (play_for_cycles > 0 && rest_for_cycles > 0);
// Defensive reset: if user disables the gate mid-rest, snap pr_resting
// back to 0 and zero the progress counter. effect_mix will smoothly
// ramp back to 1 via the @sample smoother.
!new_pr_enabled && pr_resting ? (
  pr_resting = 0;
  pr_cycle_progress = 0;
);
pr_enabled       = new_pr_enabled;
rest_lfo_mode    = slider24;
rest_output_mode = slider25;

// Speed ramp engage-edge.
// Speed Ramp target selector save/restore (nested-selector pattern).
// When the selector changes, save current slider29 to OLD slot, load
// NEW slot's stored amount into slider29. Otherwise capture live edits.
sel_speed_target = slider26;
last_speed_target != sel_speed_target ? (
  speed_ramp_target_value_mem[last_speed_target] = slider29;
  slider29 = speed_ramp_target_value_mem[sel_speed_target];
  slider_automate(slider29);
  last_speed_target = sel_speed_target;
) : (
  speed_ramp_target_value_mem[sel_speed_target] = slider29;
);
// No engage-edge detection. Engage is a freeze/resume gate handled
// in @sample. Only transport play resets ramp_t.


@sample

// Transport play edge resets EVERYTHING tied to "this play session":
// Start Delay counter, Speed Ramp progress, Speed Ramp start-delay
// counter. ONLY thing that resets ramp_t — slider changes don't.
play_state > 0 && last_play_state == 0 ? (
  start_delay_elapsed      = 0;
  speed_ramp_t             = 0.0;
  speed_ramp_delay_elapsed = 0;
);
last_play_state = play_state;

start_delay_elapsed < start_delay_sec ? (
  start_delay_elapsed += 1 / srate;
  // No-op — spl0 and spl1 pass through unchanged.
) : (

freq_lo         = min(slider1, slider2);
freq_hi         = max(slider1, slider2);
high_secs       = slider3;
low_secs        = slider4;
fade_down_secs  = slider5;
fade_down_shape = slider6;
fade_up_secs    = slider7;
fade_up_shape   = slider8;
resonance       = slider9;
wet             = slider10;
dry             = 1 - wet;
phase_offset    = slider11 / 360;

// ===== PAN BLOCK SAMPLE READ START =====
pan_enabled     = slider13;
pan_mode        = slider14;
pan_spread      = slider15;
pan_glide_ms    = slider16;
pan_cycle_steps = slider17;
pan_sweep_val   = slider18;
pan_sweep_mode  = slider19;
pan_sweep_ratio = slider20;
// ===== PAN BLOCK SAMPLE READ END =====

// Advance speed_ramp_t while engaged + duration > 0 + past start
// delay. Engage off freezes ramp_t; engaging on resumes from there.
slider28 && slider27 > 0 ? (
  speed_ramp_delay_samples = slider37 * 60 * srate;
  speed_ramp_delay_elapsed < speed_ramp_delay_samples ? (
    speed_ramp_delay_elapsed += 1;
  ) : (
    speed_ramp_t += 1.0 / (srate * slider27 * 60);
    speed_ramp_t = min(speed_ramp_t, 1.0);
  );
);

// Per-target Speed Ramp offsets (parallel — all 4 dwells ramp
// regardless of which target the selector shows). Each offset is
// ramp_t * stored_amount in seconds. Applied additively to the 4
// dwell sliders' raw values to produce the effective dwell phase
// lengths.
speed_ramp_high_offset      = speed_ramp_t * speed_ramp_target_value_mem[0];
speed_ramp_fade_down_offset = speed_ramp_t * speed_ramp_target_value_mem[1];
speed_ramp_low_offset       = speed_ramp_t * speed_ramp_target_value_mem[2];
speed_ramp_fade_up_offset   = speed_ramp_t * speed_ramp_target_value_mem[3];

high_secs      = max(slider3 + speed_ramp_high_offset,      0.001);
fade_down_secs = max(slider5 + speed_ramp_fade_down_offset, 0.001);
low_secs       = max(slider4 + speed_ramp_low_offset,       0.001);
fade_up_secs   = max(slider7 + speed_ramp_fade_up_offset,   0.001);

period = high_secs + fade_down_secs + low_secs + fade_up_secs;
freq   = 1 / max(period, 0.00001);

combined_scale = 1.0;

// Drift: two independent sources (musical, slow) shape the dwell
// period in seconds. Musical drift scales with Speed Ramp (slows
// when the pattern slows); slow drift is wall-clock.
musical_drift_up     = slider30;
musical_drift_down   = slider31;
musical_drift_period = max(slider32, 1);
slow_drift_up        = slider33;
slow_drift_down      = slider34;
slow_drift_period    = max(slider35, 0.1);
drift_shape          = slider36;

musical_drift_offset = 0;
(musical_drift_up > 0 || musical_drift_down > 0) ? (
  // One full musical drift cycle spans musical_drift_period dwell patterns.
  // samples_per_primary_cycle = srate * period. Phase increment
  // per sample = combined_scale / (musical_drift_period * srate * period).
  musical_phase_inc = combined_scale / (musical_drift_period * srate * max(period, 0.00001));
  musical_drift_phase += musical_phase_inc;
  musical_drift_phase >= 1 ? (
    musical_drift_phase -= 1;
    drift_shape == 2 ? (
      musical_drift_prev_target = musical_drift_curr_target;
      musical_drift_curr_target = rand(2) - 1;
    );
  );
  drift_shape == 0 ? (
    musical_shape_val = sin(2 * $pi * musical_drift_phase);
  ) : drift_shape == 1 ? (
    musical_shape_val = musical_drift_phase < 0.25 ? (4 * musical_drift_phase) :
                        musical_drift_phase < 0.75 ? (2 - 4 * musical_drift_phase) :
                                                     (4 * musical_drift_phase - 4);
  ) : (
    musical_shape_val = musical_drift_prev_target + (musical_drift_curr_target - musical_drift_prev_target) * musical_drift_phase;
  );
  musical_drift_offset = musical_shape_val > 0 ? musical_shape_val * musical_drift_up : musical_shape_val * musical_drift_down;
);

slow_drift_offset = 0;
(slow_drift_up > 0 || slow_drift_down > 0) ? (
  slow_phase_inc = 1 / (slow_drift_period * 60 * srate);
  slow_drift_phase += slow_phase_inc;
  slow_drift_phase >= 1 ? (
    slow_drift_phase -= 1;
    drift_shape == 2 ? (
      slow_drift_prev_target = slow_drift_curr_target;
      slow_drift_curr_target = rand(2) - 1;
    );
  );
  drift_shape == 0 ? (
    slow_shape_val = sin(2 * $pi * slow_drift_phase);
  ) : drift_shape == 1 ? (
    slow_shape_val = slow_drift_phase < 0.25 ? (4 * slow_drift_phase) :
                     slow_drift_phase < 0.75 ? (2 - 4 * slow_drift_phase) :
                                               (4 * slow_drift_phase - 4);
  ) : (
    slow_shape_val = slow_drift_prev_target + (slow_drift_curr_target - slow_drift_prev_target) * slow_drift_phase;
  );
  slow_drift_offset = slow_shape_val > 0 ? slow_shape_val * slow_drift_up : slow_shape_val * slow_drift_down;
);

// Apply drift to the dwell period (in seconds), then recompute freq.
// Clamp period to a sensible minimum so over-aggressive Down-by
// can't silence or break the plugin.
drifted_period = max(period + musical_drift_offset + slow_drift_offset, 0.1);
freq = combined_scale / drifted_period;

// Smoother coefficient — used for cut_smooth below and effect_mix
// just below that. Moved up so both can share the same value.
smooth = exp(-1 / (srate * 0.003));

// Play/Rest gate state machine. pr_cycle_progress accumulates
// fractional cycles at the dwell-pattern frequency (1 / total
// period); when it crosses the threshold for the current state,
// pr_resting flips and the counter resets.
pr_enabled ? (
  pr_cycle_progress += freq / srate;
  !pr_resting ? (
    pr_cycle_progress >= play_for_cycles ? (
      pr_resting = 1;
      pr_cycle_progress = 0;
    );
  ) : (
    pr_cycle_progress >= rest_for_cycles ? (
      pr_resting = 0;
      pr_cycle_progress = 0;
    );
  );
);

// LFO at rest = Freeze → in_frozen_rest gates phase_l/r and
// pan_phase advancement during rest.
in_frozen_rest = pr_enabled && pr_resting && rest_lfo_mode == 1;

// effect_mix smoothly transitions between 1 (effect fully on) and
// 0 (rest target) at rest boundaries. The rest target depends on
// Output at rest: dry_l/r (pass-through) for Pass-through, 0
// (silence) for Silence. Below, the play-mode wet/dry mix and the
// rest target are interpolated by effect_mix to produce the final
// spl0/spl1 — soft fade between effect-on and whichever rest
// state was chosen.
target_effect_mix = pr_enabled && pr_resting ? 0 : 1;
effect_mix        = effect_mix * smooth + target_effect_mix * (1 - smooth);
silence_mode      = (rest_output_mode == 1);

// Advance dwell-pattern LFO phases unless Freeze rest is pinning them.
!in_frozen_rest ? (
  phase_l += freq / srate;
  phase_l >= 1 ? phase_l -= 1;

  slider12 == 0 ? (
    phase_r += freq / srate;
    phase_r >= 1 ? phase_r -= 1;
  ) : (
    phase_r = phase_l + phase_offset;
    phase_r >= 1 ? phase_r -= 1;
    phase_r < 0  ? phase_r += 1;
  );
);

lfo_l = calc_lfo(phase_l, high_secs, low_secs, fade_down_secs, fade_up_secs, fade_down_shape, fade_up_shape);
lfo_r = calc_lfo(phase_r, high_secs, low_secs, fade_down_secs, fade_up_secs, fade_down_shape, fade_up_shape);

target_freq_l = freq_lo + lfo_l * (freq_hi - freq_lo);
target_freq_r = freq_lo + lfo_r * (freq_hi - freq_lo);

cut_target_l = target_freq_l * 2 / srate;
cut_target_r = target_freq_r * 2 / srate;

cut_smooth_l = cut_smooth_l * smooth + cut_target_l * (1 - smooth);
cut_smooth_r = cut_smooth_r * smooth + cut_target_r * (1 - smooth);

dry_l = spl0;
dry_r = spl1;

fb_l = resonance + resonance / (1 - cut_smooth_l);
n3   = n3  + cut_smooth_l * (spl0 - n3  + fb_l * (n3  - n4));
n4   = n4  + cut_smooth_l * (n3   - n4);
out_l = n4;

fb_r = resonance + resonance / (1 - cut_smooth_r);
rn3  = rn3 + cut_smooth_r * (spl1 - rn3 + fb_r * (rn3 - rn4));
rn4  = rn4 + cut_smooth_r * (rn3  - rn4);
out_r = rn4;

// Compute play-mode output (normal wet/dry mix), then blend with
// the rest target via effect_mix. Rest target: dry_l/r for
// Pass-through, 0 for Silence. Filter state (n3/n4/rn3/rn4) and
// cut_smooth keep running through rest so the filter is "warm"
// and re-engages cleanly on rest exit.
play_spl0 = dry * dry_l + wet * out_l;
play_spl1 = dry * dry_r + wet * out_r;
rest_spl0 = silence_mode ? 0 : dry_l;
rest_spl1 = silence_mode ? 0 : dry_r;
spl0 = effect_mix * play_spl0 + (1 - effect_mix) * rest_spl0;
spl1 = effect_mix * play_spl1 + (1 - effect_mix) * rest_spl1;

// ===== PAN BLOCK SAMPLE LOGIC START =====
pan_enabled ? (
  // Per-cycle pan modes (0-9) advance pan_cycle_index on dwell LFO
  // phase wraps. Since the dwell phase_l advancement above is
  // gated by !in_frozen_rest, cycle_fired never triggers during
  // Freeze rest — pan_cycle_index naturally pauses too.
  cycle_fired  = (phase_l < last_phase_l);
  last_phase_l = phase_l;

  pan_mode <= 9 ? (
    cycle_fired ? (
      pan_mode == 5 || pan_mode == 7 || pan_mode == 9 ? (
        pan_cycle_index += pan_cycle_dir;
        (pan_cycle_index >= pan_cycle_steps - 1 || pan_cycle_index <= 0) ?
          pan_cycle_dir = -pan_cycle_dir;
      ) : (
        pan_cycle_index = (pan_cycle_index + 1) % pan_cycle_steps;
      );
    );
    cur_pan = percycle_pan(pan_cycle_index, pan_cycle_steps);
    pan_l = cur_pan;

  ) : pan_mode == 10 ? (
    // Pan Sweep — gate phase advance for Freeze mode.
    pan_sweep_mode == 0 ? (pan_freq = pan_sweep_val) :
    pan_sweep_mode == 1 ? (pan_freq = 1 / max(pan_sweep_val, 0.001)) :
                          (pan_freq = pan_sweep_val / 60);
    !in_frozen_rest ? (
      pan_phase += pan_freq / srate;
      pan_phase >= 1 ? pan_phase -= 1;
    );
    cur_pan = (pan_phase * 2.0 - 1.0) * pan_spread;
    pan_l = cur_pan;

  ) : pan_mode == 11 ? (
    // Pan Sweep Flipped — gate phase advance for Freeze mode.
    pan_sweep_mode == 0 ? (pan_freq = pan_sweep_val) :
    pan_sweep_mode == 1 ? (pan_freq = 1 / max(pan_sweep_val, 0.001)) :
                          (pan_freq = pan_sweep_val / 60);
    !in_frozen_rest ? (
      pan_phase += pan_freq / srate;
      pan_phase >= 1 ? pan_phase -= 1;
    );
    cur_pan = (1.0 - pan_phase * 2.0) * pan_spread;
    pan_l = cur_pan;

  ) : (
    // Linked Sweep — gate phase advance for Freeze mode.
    !in_frozen_rest ? (
      pan_phase += (freq * pan_sweep_ratio) / srate;
      pan_phase >= 1 ? pan_phase -= 1;
    );
    cur_pan = (pan_phase * 2.0 - 1.0) * pan_spread;
    pan_l = cur_pan;
  );

  pan_glide_coeff = pan_glide_ms > 0 ? exp(-1 / (srate * pan_glide_ms * 0.001)) : 0;
  pan_l_smooth = pan_l_smooth * pan_glide_coeff + pan_l * (1 - pan_glide_coeff);

  // Apply the pan, then blend with the un-panned signal via
  // effect_mix. During rest, effect_mix → 0 means the output is
  // whatever spl0 was BEFORE the pan block ran — which already
  // reflects the rest target (dry pass-through OR silence)
  // because the wet/dry blend above used effect_mix.
  pan_pos = (pan_l_smooth + 1.0) * 0.5;
  mono = (spl0 + spl1) * 0.5;
  spl0_panned = mono * cos(pan_pos * $pi * 0.5);
  spl1_panned = mono * sin(pan_pos * $pi * 0.5);
  spl0 = spl0 * (1 - effect_mix) + spl0_panned * effect_mix;
  spl1 = spl1 * (1 - effect_mix) + spl1_panned * effect_mix;
);
// ===== PAN BLOCK SAMPLE LOGIC END =====

);  // close start-delay else branch

@serialize
// Persist per-target Speed Ramp dwell amounts (signed deltas in
// seconds) + last-selected target index. Without this, only the
// most-recently-edited target's amount survives a project reload.
file_mem(0, speed_ramp_target_value_mem, N_SPEED_TARGETS);
file_var(0, last_speed_target);